;FLAVOR:RepRap
;TIME:1583
;Filament used: 1.18686m
;Layer height: 0.2
;MINX:108.76
;MINY:108.766
;MINZ:0.3
;MAXX:171.248
;MAXY:171.236
;MAXZ:5.9
;Generated with Cura_SteamEngine 4.3.0
T0
M190 S60
M104 S250
M109 S250
M82 ;absolute extrusion mode
G28; Home
G1 Z15.0 F6000 ;Move the platform down 15mm
;Prime the extruder
G92 E0
G1 F200 E3
G92 E0
G29; Auto-bed-leveling
G0 Z0
G92 Z-1; Up 1mm
M83 ;relative extrusion mode
G1 F1500 E-6.5
;LAYER_COUNT:29
;LAYER:0
M107
G0 F3600 X118.529 Y117.305 Z0.3
;TYPE:SKIRT
G1 F1500 E6.5
G1 F1200 X118.907 Y116.954 E0.02574
G1 X120.977 Y115.218 E0.13478
G1 X121.39 Y114.907 E0.02579
G1 X123.631 Y113.392 E0.13496
G1 X124.069 Y113.127 E0.02554
G1 X126.448 Y111.852 E0.13466
G1 X126.914 Y111.633 E0.02569
G1 X129.417 Y110.607 E0.13496
G1 X129.906 Y110.435 E0.02586
G1 X132.497 Y109.675 E0.13471
G1 X132.993 Y109.557 E0.02544
G1 X135.653 Y109.064 E0.13497
G1 X136.166 Y108.996 E0.02582
G1 X138.859 Y108.781 E0.13478
G1 X139.368 Y108.766 E0.02541
G1 X142.066 Y108.826 E0.13464
G1 X142.583 Y108.865 E0.02587
G1 X145.267 Y109.205 E0.13498
G1 X145.776 Y109.296 E0.0258
G1 X148.405 Y109.91 E0.13469
G1 X148.899 Y110.052 E0.02564
G1 X151.455 Y110.934 E0.1349
G1 X151.93 Y111.126 E0.02556
G1 X154.38 Y112.264 E0.13477
G1 X154.837 Y112.506 E0.0258
G1 X157.157 Y113.891 E0.1348
G1 X157.585 Y114.177 E0.02568
G1 X159.751 Y115.794 E0.13485
G1 X160.148 Y116.124 E0.02576
G1 X162.136 Y117.956 E0.13487
G1 X162.494 Y118.322 E0.02554
G1 X164.283 Y120.346 E0.13477
G1 X164.604 Y120.748 E0.02567
G1 X166.176 Y122.946 E0.13482
G1 X166.454 Y123.381 E0.02576
G1 X167.791 Y125.729 E0.1348
G1 X168.022 Y126.188 E0.02564
G1 X169.111 Y128.661 E0.13481
G1 X169.296 Y129.148 E0.02599
G1 X170.122 Y131.721 E0.13482
G1 X170.252 Y132.211 E0.02529
G1 X170.813 Y134.854 E0.1348
G1 X170.894 Y135.365 E0.02581
G1 X171.179 Y138.054 E0.13491
G1 X171.205 Y138.429 E0.01875
G1 X171.248 Y139.847 E0.07078
G1 X171.248 Y140.128 E0.01402
G1 X171.213 Y141.479 E0.06742
G1 X171.189 Y141.862 E0.01915
G1 X170.919 Y144.483 E0.13145
G1 X170.842 Y144.982 E0.02519
G1 X170.295 Y147.63 E0.1349
G1 X170.167 Y148.123 E0.02541
G1 X169.355 Y150.698 E0.1347
G1 X169.172 Y151.187 E0.02605
G1 X168.095 Y153.665 E0.1348
G1 X167.867 Y154.124 E0.02557
G1 X166.542 Y156.479 E0.13481
G1 X166.267 Y156.913 E0.02563
G1 X164.707 Y159.12 E0.13484
G1 X164.388 Y159.526 E0.02576
G1 X162.609 Y161.56 E0.13481
G1 X162.252 Y161.928 E0.02558
G1 X160.273 Y163.77 E0.13488
G1 X159.877 Y164.102 E0.02578
G1 X157.719 Y165.73 E0.13486
G1 X157.292 Y166.018 E0.0257
G1 X154.98 Y167.414 E0.13474
G1 X154.528 Y167.657 E0.0256
G1 X152.084 Y168.809 E0.1348
G1 X151.607 Y169.004 E0.02571
G1 X149.055 Y169.899 E0.13492
G1 X148.563 Y170.044 E0.02559
G1 X145.937 Y170.672 E0.13471
G1 X145.427 Y170.766 E0.02587
G1 X142.746 Y171.119 E0.13491
G1 X142.234 Y171.16 E0.02563
G1 X139.534 Y171.236 E0.13476
G1 X139.025 Y171.224 E0.0254
G1 X136.331 Y171.025 E0.13477
G1 X135.815 Y170.96 E0.02595
G1 X133.153 Y170.482 E0.13493
G1 X132.652 Y170.365 E0.02567
G1 X130.057 Y169.617 E0.13474
G1 X129.569 Y169.449 E0.02575
G1 X127.062 Y168.436 E0.1349
G1 X126.597 Y168.22 E0.02558
G1 X124.211 Y166.958 E0.13466
G1 X123.77 Y166.694 E0.02564
G1 X121.521 Y165.19 E0.13498
G1 X121.106 Y164.881 E0.02581
G1 X119.027 Y163.155 E0.13481
G1 X118.649 Y162.806 E0.02567
G1 X116.758 Y160.875 E0.13484
G1 X116.417 Y160.49 E0.02566
G1 X114.736 Y158.377 E0.13471
G1 X114.437 Y157.958 E0.02568
G1 X112.98 Y155.68 E0.13491
G1 X112.725 Y155.232 E0.02572
G1 X111.511 Y152.818 E0.13481
G1 X111.304 Y152.348 E0.02562
G1 X110.344 Y149.822 E0.13482
G1 X110.186 Y149.333 E0.02564
G1 X109.491 Y146.723 E0.13475
G1 X109.385 Y146.218 E0.02574
G1 X108.962 Y143.548 E0.13487
G1 X108.907 Y143.036 E0.02569
G1 X108.761 Y140.339 E0.13475
G1 X108.76 Y139.827 E0.02554
G1 X108.891 Y137.128 E0.13481
G1 X108.943 Y136.613 E0.02582
G1 X109.352 Y133.941 E0.13486
G1 X109.456 Y133.437 E0.02567
G1 X110.137 Y130.823 E0.13477
G1 X110.292 Y130.332 E0.02569
G1 X111.239 Y127.801 E0.13482
G1 X111.444 Y127.329 E0.02567
G1 X112.646 Y124.909 E0.13481
G1 X112.898 Y124.461 E0.02564
G1 X114.343 Y122.176 E0.13488
G1 X114.64 Y121.756 E0.02566
G1 X116.31 Y119.634 E0.13472
G1 X116.648 Y119.246 E0.02567
G1 X118.529 Y117.305 E0.13485
G0 F3600 X118.817 Y117.584
G1 F1200 X119.164 Y117.26 E0.02369
G1 X121.234 Y115.524 E0.13478
G1 X121.614 Y115.238 E0.02373
G1 X123.855 Y113.723 E0.13496
G1 X124.258 Y113.48 E0.02348
G1 X126.637 Y112.205 E0.13466
G1 X127.065 Y112.003 E0.02361
G1 X129.568 Y110.977 E0.13496
G1 X130.018 Y110.819 E0.02379
G1 X132.609 Y110.059 E0.13471
G1 X133.066 Y109.95 E0.02344
G1 X135.726 Y109.457 E0.13497
G1 X136.198 Y109.395 E0.02375
G1 X138.891 Y109.18 E0.13478
G1 X139.359 Y109.166 E0.02336
G1 X142.057 Y109.226 E0.13464
G1 X142.533 Y109.261 E0.02381
G1 X145.217 Y109.601 E0.13498
G1 X145.685 Y109.686 E0.02373
G1 X148.314 Y110.3 E0.13469
G1 X148.769 Y110.431 E0.02362
G1 X151.325 Y111.313 E0.1349
G1 X151.762 Y111.489 E0.0235
G1 X154.212 Y112.627 E0.13477
G1 X154.632 Y112.849 E0.0237
G1 X156.952 Y114.234 E0.1348
G1 X157.346 Y114.498 E0.02366
G1 X159.512 Y116.115 E0.13485
G1 X159.877 Y116.418 E0.02367
G1 X161.865 Y118.25 E0.13487
G1 X162.195 Y118.587 E0.02353
G1 X163.984 Y120.611 E0.13477
G1 X164.279 Y120.981 E0.02361
G1 X165.851 Y123.179 E0.13482
G1 X166.106 Y123.579 E0.02367
G1 X167.443 Y125.927 E0.1348
G1 X167.656 Y126.349 E0.02358
G1 X168.745 Y128.822 E0.13481
G1 X168.915 Y129.27 E0.02391
G1 X169.741 Y131.843 E0.13482
G1 X169.861 Y132.294 E0.02328
G1 X170.422 Y134.937 E0.1348
G1 X170.496 Y135.407 E0.02374
G1 X170.781 Y138.096 E0.13491
G1 X170.805 Y138.442 E0.0173
G1 X170.848 Y139.86 E0.07078
G1 X170.848 Y140.118 E0.01287
G1 X170.813 Y141.469 E0.06742
G1 X170.791 Y141.821 E0.0176
G1 X170.521 Y144.442 E0.13145
G1 X170.45 Y144.902 E0.02322
G1 X169.903 Y147.55 E0.1349
G1 X169.785 Y148.002 E0.02331
G1 X168.973 Y150.577 E0.1347
G1 X168.805 Y151.028 E0.02401
G1 X167.728 Y153.506 E0.1348
G1 X167.518 Y153.928 E0.02352
G1 X166.193 Y156.283 E0.13481
G1 X165.94 Y156.682 E0.02357
G1 X164.38 Y158.889 E0.13484
G1 X164.086 Y159.262 E0.02369
G1 X162.307 Y161.296 E0.13481
G1 X161.979 Y161.635 E0.02353
G1 X160 Y163.477 E0.13488
G1 X159.636 Y163.782 E0.02369
G1 X157.478 Y165.41 E0.13486
G1 X157.086 Y165.676 E0.02363
G1 X154.774 Y167.072 E0.13474
G1 X154.357 Y167.295 E0.02359
G1 X151.913 Y168.447 E0.1348
G1 X151.474 Y168.627 E0.02367
G1 X148.922 Y169.522 E0.13492
G1 X148.47 Y169.655 E0.02351
G1 X145.844 Y170.283 E0.13471
G1 X145.374 Y170.37 E0.02385
G1 X142.693 Y170.723 E0.13491
G1 X142.222 Y170.76 E0.02357
G1 X139.522 Y170.836 E0.13476
G1 X139.054 Y170.826 E0.02335
G1 X136.36 Y170.627 E0.13477
G1 X135.886 Y170.567 E0.02384
G1 X133.224 Y170.089 E0.13493
G1 X132.763 Y169.981 E0.02362
G1 X130.168 Y169.233 E0.13474
G1 X129.719 Y169.078 E0.0237
G1 X127.212 Y168.065 E0.1349
G1 X126.784 Y167.866 E0.02355
G1 X124.398 Y166.604 E0.13466
G1 X123.992 Y166.362 E0.02358
G1 X121.743 Y164.858 E0.13498
G1 X121.362 Y164.573 E0.02374
G1 X119.283 Y162.847 E0.13481
G1 X118.934 Y162.526 E0.02366
G1 X117.043 Y160.595 E0.13484
G1 X116.73 Y160.241 E0.02357
G1 X115.049 Y158.128 E0.13471
G1 X114.774 Y157.743 E0.0236
G1 X113.317 Y155.465 E0.13491
G1 X113.082 Y155.053 E0.02366
G1 X111.868 Y152.639 E0.13481
G1 X111.678 Y152.206 E0.02359
G1 X110.718 Y149.68 E0.13482
G1 X110.573 Y149.23 E0.02359
G1 X109.878 Y146.62 E0.13475
G1 X109.78 Y146.156 E0.02366
G1 X109.357 Y143.486 E0.13487
G1 X109.307 Y143.015 E0.02363
G1 X109.161 Y140.318 E0.13475
G1 X109.159 Y139.846 E0.02355
G1 X109.29 Y137.147 E0.13481
G1 X109.338 Y136.674 E0.02372
G1 X109.747 Y134.002 E0.13486
G1 X109.843 Y133.538 E0.02364
G1 X110.524 Y130.924 E0.13477
G1 X110.667 Y130.472 E0.02365
G1 X111.614 Y127.941 E0.13482
G1 X111.802 Y127.507 E0.0236
G1 X113.004 Y125.087 E0.13481
G1 X113.236 Y124.674 E0.02363
G1 X114.681 Y122.389 E0.13488
G1 X114.954 Y122.003 E0.02359
G1 X116.624 Y119.881 E0.13472
G1 X116.936 Y119.525 E0.02362
G1 X118.817 Y117.584 E0.13485
G0 F3600 X119.104 Y117.862
G1 F1200 X119.421 Y117.567 E0.0216
G1 X121.491 Y115.831 E0.13478
G1 X121.838 Y115.57 E0.02166
G1 X124.079 Y114.055 E0.13496
G1 X124.447 Y113.832 E0.02147
G1 X126.826 Y112.557 E0.13466
G1 X127.217 Y112.373 E0.02156
G1 X129.72 Y111.347 E0.13496
G1 X130.131 Y111.203 E0.02173
G1 X132.722 Y110.443 E0.13471
G1 X133.139 Y110.343 E0.02139
G1 X135.799 Y109.85 E0.13497
G1 X136.23 Y109.793 E0.02169
G1 X138.923 Y109.578 E0.13478
G1 X139.35 Y109.566 E0.02131
G1 X142.048 Y109.626 E0.13464
G1 X142.483 Y109.658 E0.02176
G1 X145.167 Y109.998 E0.13498
G1 X145.594 Y110.075 E0.02165
G1 X148.223 Y110.689 E0.13469
G1 X148.638 Y110.809 E0.02155
G1 X151.194 Y111.691 E0.1349
G1 X151.593 Y111.852 E0.02147
G1 X154.043 Y112.99 E0.13477
G1 X154.427 Y113.193 E0.02167
G1 X156.747 Y114.578 E0.1348
G1 X157.107 Y114.818 E0.02159
G1 X159.273 Y116.435 E0.13485
G1 X159.606 Y116.712 E0.02161
G1 X161.594 Y118.544 E0.13487
G1 X161.895 Y118.851 E0.02145
G1 X163.684 Y120.875 E0.13477
G1 X163.953 Y121.214 E0.02159
G1 X165.525 Y123.412 E0.13482
G1 X165.759 Y123.777 E0.02163
G1 X167.096 Y126.125 E0.1348
G1 X167.29 Y126.51 E0.02151
G1 X168.379 Y128.983 E0.13481
G1 X168.534 Y129.392 E0.02182
G1 X169.36 Y131.965 E0.13482
G1 X169.469 Y132.377 E0.02126
G1 X170.03 Y135.02 E0.1348
G1 X170.099 Y135.449 E0.02168
G1 X170.384 Y138.138 E0.13491
G1 X170.405 Y138.454 E0.0158
G1 X170.448 Y139.872 E0.07078
G1 X170.449 Y140.108 E0.01177
G1 X170.414 Y141.459 E0.06742
G1 X170.393 Y141.78 E0.01605
G1 X170.123 Y144.401 E0.13145
G1 X170.058 Y144.821 E0.0212
G1 X169.511 Y147.469 E0.1349
G1 X169.404 Y147.882 E0.02128
G1 X168.592 Y150.457 E0.1347
G1 X168.438 Y150.868 E0.0219
G1 X167.361 Y153.346 E0.1348
G1 X167.169 Y153.731 E0.02146
G1 X165.844 Y156.086 E0.13481
G1 X165.614 Y156.451 E0.02152
G1 X164.054 Y158.658 E0.13484
G1 X163.785 Y158.999 E0.02167
G1 X162.006 Y161.033 E0.13481
G1 X161.707 Y161.342 E0.02145
G1 X159.728 Y163.184 E0.13488
G1 X159.395 Y163.463 E0.02167
G1 X157.237 Y165.091 E0.13486
G1 X156.879 Y165.333 E0.02156
G1 X154.567 Y166.729 E0.13474
G1 X154.187 Y166.933 E0.02152
G1 X151.743 Y168.085 E0.1348
G1 X151.342 Y168.249 E0.02161
G1 X148.79 Y169.144 E0.13492
G1 X148.377 Y169.266 E0.02148
G1 X145.751 Y169.894 E0.13471
G1 X145.322 Y169.973 E0.02176
G1 X142.641 Y170.326 E0.13491
G1 X142.211 Y170.36 E0.02152
G1 X139.511 Y170.436 E0.13476
G1 X139.084 Y170.427 E0.02131
G1 X136.39 Y170.228 E0.13477
G1 X135.957 Y170.173 E0.02178
G1 X133.295 Y169.695 E0.13493
G1 X132.874 Y169.597 E0.02157
G1 X130.279 Y168.849 E0.13474
G1 X129.869 Y168.707 E0.02165
G1 X127.362 Y167.694 E0.1349
G1 X126.971 Y167.513 E0.0215
G1 X124.585 Y166.251 E0.13466
G1 X124.214 Y166.029 E0.02157
G1 X121.965 Y164.525 E0.13498
G1 X121.617 Y164.265 E0.02167
G1 X119.538 Y162.539 E0.13481
G1 X119.22 Y162.247 E0.02154
G1 X117.329 Y160.316 E0.13484
G1 X117.043 Y159.992 E0.02156
G1 X115.362 Y157.879 E0.13471
G1 X115.111 Y157.527 E0.02157
G1 X113.654 Y155.249 E0.13491
G1 X113.44 Y154.873 E0.02158
G1 X112.226 Y152.459 E0.13481
G1 X112.052 Y152.064 E0.02153
G1 X111.092 Y149.538 E0.13482
G1 X110.959 Y149.127 E0.02155
G1 X110.264 Y146.517 E0.13475
G1 X110.175 Y146.093 E0.02161
G1 X109.752 Y143.423 E0.13487
G1 X109.706 Y142.993 E0.02158
G1 X109.56 Y140.296 E0.13475
G1 X109.559 Y139.865 E0.0215
G1 X109.69 Y137.166 E0.13481
G1 X109.733 Y136.735 E0.02161
G1 X110.142 Y134.063 E0.13486
G1 X110.23 Y133.639 E0.0216
G1 X110.911 Y131.025 E0.13477
G1 X111.041 Y130.612 E0.0216
G1 X111.988 Y128.081 E0.13482
G1 X112.16 Y127.685 E0.02154
G1 X113.362 Y125.265 E0.13481
G1 X113.574 Y124.888 E0.02158
G1 X115.019 Y122.603 E0.13488
G1 X115.269 Y122.251 E0.02154
G1 X116.939 Y120.129 E0.13472
G1 X117.223 Y119.803 E0.02157
G1 X119.104 Y117.862 E0.13485
G0 F3600 X119.391 Y118.141
G1 F1200 X119.678 Y117.873 E0.01959
G1 X121.748 Y116.137 E0.13478
G1 X122.062 Y115.901 E0.0196
G1 X124.303 Y114.386 E0.13496
G1 X124.636 Y114.185 E0.01941
G1 X127.015 Y112.91 E0.13466
G1 X127.369 Y112.743 E0.01953
G1 X129.872 Y111.717 E0.13496
G1 X130.243 Y111.587 E0.01961
G1 X132.834 Y110.827 E0.13471
G1 X133.212 Y110.737 E0.01939
G1 X135.872 Y110.244 E0.13497
G1 X136.262 Y110.192 E0.01963
G1 X138.955 Y109.977 E0.13478
G1 X139.341 Y109.966 E0.01927
G1 X142.039 Y110.026 E0.13464
G1 X142.433 Y110.055 E0.01971
G1 X145.117 Y110.395 E0.13498
G1 X145.503 Y110.465 E0.01957
G1 X148.132 Y111.079 E0.13469
G1 X148.508 Y111.187 E0.01952
G1 X151.064 Y112.069 E0.1349
G1 X151.425 Y112.215 E0.01943
G1 X153.875 Y113.353 E0.13477
G1 X154.222 Y113.536 E0.01957
G1 X156.542 Y114.921 E0.1348
G1 X156.867 Y115.139 E0.01952
G1 X159.033 Y116.756 E0.13485
G1 X159.335 Y117.007 E0.01959
G1 X161.323 Y118.839 E0.13487
G1 X161.595 Y119.116 E0.01937
G1 X163.384 Y121.14 E0.13477
G1 X163.628 Y121.446 E0.01953
G1 X165.2 Y123.644 E0.13482
G1 X165.411 Y123.975 E0.01958
G1 X166.748 Y126.323 E0.1348
G1 X166.924 Y126.672 E0.0195
G1 X168.013 Y129.145 E0.13481
G1 X168.153 Y129.514 E0.01969
G1 X168.979 Y132.087 E0.13482
G1 X169.078 Y132.46 E0.01925
G1 X169.639 Y135.103 E0.1348
G1 X169.701 Y135.491 E0.0196
G1 X169.986 Y138.18 E0.13491
G1 X170.005 Y138.466 E0.0143
G1 X170.048 Y139.884 E0.07078
G1 X170.049 Y140.097 E0.01063
G1 X170.014 Y141.448 E0.06742
G1 X169.995 Y141.739 E0.01455
G1 X169.725 Y144.36 E0.13145
G1 X169.666 Y144.74 E0.01919
G1 X169.119 Y147.388 E0.1349
G1 X169.022 Y147.762 E0.01928
G1 X168.21 Y150.337 E0.1347
G1 X168.071 Y150.709 E0.01981
G1 X166.994 Y153.187 E0.1348
G1 X166.821 Y153.535 E0.01939
G1 X165.496 Y155.89 E0.13481
G1 X165.287 Y156.22 E0.01949
G1 X163.727 Y158.427 E0.13484
G1 X163.484 Y158.736 E0.01961
G1 X161.705 Y160.77 E0.13481
G1 X161.434 Y161.05 E0.01944
G1 X159.455 Y162.892 E0.13488
G1 X159.155 Y163.144 E0.01955
G1 X156.997 Y164.772 E0.13486
G1 X156.672 Y164.991 E0.01955
G1 X154.36 Y166.387 E0.13474
G1 X154.016 Y166.571 E0.01946
G1 X151.572 Y167.723 E0.1348
G1 X151.21 Y167.872 E0.01953
G1 X148.658 Y168.767 E0.13492
G1 X148.284 Y168.877 E0.01945
G1 X145.658 Y169.505 E0.13471
G1 X145.27 Y169.576 E0.01968
G1 X142.589 Y169.929 E0.13491
G1 X142.2 Y169.96 E0.01947
G1 X139.5 Y170.036 E0.13476
G1 X139.113 Y170.028 E0.01931
G1 X136.419 Y169.829 E0.13477
G1 X136.027 Y169.779 E0.01972
G1 X133.365 Y169.301 E0.13493
G1 X132.985 Y169.212 E0.01947
G1 X130.39 Y168.464 E0.13474
G1 X130.018 Y168.336 E0.01963
G1 X127.511 Y167.323 E0.1349
G1 X127.158 Y167.159 E0.01942
G1 X124.772 Y165.897 E0.13466
G1 X124.437 Y165.697 E0.01947
G1 X122.188 Y164.193 E0.13498
G1 X121.873 Y163.958 E0.01961
G1 X119.794 Y162.232 E0.13481
G1 X119.506 Y161.967 E0.01953
G1 X117.615 Y160.036 E0.13484
G1 X117.356 Y159.743 E0.01951
G1 X115.675 Y157.63 E0.13471
G1 X115.448 Y157.311 E0.01953
G1 X113.991 Y155.033 E0.13491
G1 X113.797 Y154.693 E0.01953
G1 X112.583 Y152.279 E0.13481
G1 X112.426 Y151.922 E0.01946
G1 X111.466 Y149.396 E0.13482
G1 X111.346 Y149.024 E0.0195
G1 X110.651 Y146.414 E0.13475
G1 X110.57 Y146.031 E0.01953
G1 X110.147 Y143.361 E0.13487
G1 X110.106 Y142.971 E0.01956
G1 X109.96 Y140.274 E0.13475
G1 X109.958 Y139.885 E0.01941
G1 X110.089 Y137.186 E0.13481
G1 X110.129 Y136.795 E0.01961
G1 X110.538 Y134.123 E0.13486
G1 X110.617 Y133.74 E0.01951
G1 X111.298 Y131.126 E0.13477
G1 X111.416 Y130.752 E0.01957
G1 X112.363 Y128.221 E0.13482
G1 X112.519 Y127.863 E0.01948
G1 X113.721 Y125.443 E0.13481
G1 X113.912 Y125.102 E0.0195
G1 X115.357 Y122.817 E0.13488
G1 X115.583 Y122.498 E0.0195
G1 X117.253 Y120.376 E0.13472
G1 X117.51 Y120.082 E0.01948
G1 X119.391 Y118.141 E0.13485
G0 F3600 X119.678 Y118.419
G1 F1200 X119.935 Y118.18 E0.01751
G1 X122.005 Y116.444 E0.13478
