;FLAVOR:RepRap
;TIME:2805
;Filament used: 2.11582m
;Layer height: 0.2
;MINX:107.509
;MINY:107.509
;MINZ:0.3
;MAXX:172.491
;MAXY:172.491
;MAXZ:9.9
;Generated with Cura_SteamEngine 4.3.0
T0
M190 S60
M104 S250
M109 S250
M82 ;absolute extrusion mode
G28; Home
G1 Z15.0 F6000 ;Move the platform down 15mm
;Prime the extruder
G92 E0
G1 F200 E3
G92 E0
G29; Auto-bed-leveling
G0 Z0
G92 Z-1; Up 1mm
M83 ;relative extrusion mode
G1 F1500 E-6.5
;LAYER_COUNT:49
;LAYER:0
M107
G0 F3600 X118.025 Y116.067 Z0.3
;TYPE:SKIRT
G1 F1500 E6.5
G1 F1200 X118.414 Y115.715 E0.02617
G1 X120.649 Y113.899 E0.14367
G1 X121.073 Y113.591 E0.02615
G1 X123.483 Y112.021 E0.1435
G1 X123.935 Y111.759 E0.02606
G1 X126.498 Y110.448 E0.14363
G1 X126.975 Y110.234 E0.02608
G1 X129.662 Y109.197 E0.14369
G1 X130.16 Y109.035 E0.02613
G1 X132.936 Y108.286 E0.14345
G1 X133.45 Y108.176 E0.02622
G1 X136.294 Y107.722 E0.14368
G1 X136.811 Y107.666 E0.02594
G1 X139.685 Y107.51 E0.1436
G1 X140.208 Y107.509 E0.02609
G1 X143.082 Y107.654 E0.14357
G1 X143.603 Y107.708 E0.02613
G1 X146.448 Y108.153 E0.14366
G1 X146.963 Y108.262 E0.02626
G1 X149.742 Y109.003 E0.14349
G1 X150.238 Y109.163 E0.026
G1 X152.929 Y110.191 E0.14372
G1 X153.407 Y110.403 E0.02609
G1 X155.972 Y111.704 E0.14349
G1 X156.427 Y111.966 E0.02619
G1 X158.843 Y113.53 E0.14359
G1 X159.268 Y113.838 E0.02619
G1 X161.508 Y115.648 E0.14368
G1 X161.895 Y115.995 E0.02593
G1 X163.933 Y118.025 E0.14351
G1 X164.285 Y118.414 E0.02617
G1 X166.101 Y120.649 E0.14367
G1 X166.409 Y121.073 E0.02615
G1 X167.979 Y123.483 E0.1435
G1 X168.241 Y123.935 E0.02606
G1 X169.552 Y126.498 E0.14363
G1 X169.766 Y126.975 E0.02608
G1 X170.803 Y129.662 E0.14369
G1 X170.965 Y130.16 E0.02613
G1 X171.714 Y132.936 E0.14345
G1 X171.824 Y133.449 E0.02618
G1 X172.278 Y136.291 E0.14359
G1 X172.334 Y136.809 E0.02599
G1 X172.49 Y139.684 E0.14365
G1 X172.491 Y140.207 E0.02609
G1 X172.346 Y143.082 E0.14362
G1 X172.292 Y143.603 E0.02613
G1 X171.847 Y146.448 E0.14366
G1 X171.738 Y146.963 E0.02626
G1 X170.997 Y149.742 E0.14349
G1 X170.837 Y150.238 E0.026
G1 X169.81 Y152.927 E0.14361
G1 X169.598 Y153.405 E0.02609
G1 X168.296 Y155.972 E0.1436
G1 X168.034 Y156.427 E0.02619
G1 X166.47 Y158.843 E0.14359
G1 X166.162 Y159.268 E0.02619
G1 X164.352 Y161.508 E0.14368
G1 X164.005 Y161.895 E0.02593
G1 X161.975 Y163.933 E0.14351
G1 X161.586 Y164.285 E0.02617
G1 X159.351 Y166.101 E0.14367
G1 X158.927 Y166.409 E0.02615
G1 X156.517 Y167.979 E0.1435
G1 X156.065 Y168.241 E0.02606
G1 X153.502 Y169.552 E0.14363
G1 X153.025 Y169.766 E0.02608
G1 X150.338 Y170.803 E0.14369
G1 X149.84 Y170.965 E0.02613
G1 X147.064 Y171.714 E0.14345
G1 X146.55 Y171.824 E0.02622
G1 X143.706 Y172.278 E0.14368
G1 X143.189 Y172.334 E0.02594
G1 X140.315 Y172.49 E0.1436
G1 X139.792 Y172.491 E0.02609
G1 X136.918 Y172.346 E0.14357
G1 X136.397 Y172.292 E0.02613
G1 X133.552 Y171.847 E0.14366
G1 X133.037 Y171.738 E0.02626
G1 X130.258 Y170.997 E0.14349
G1 X129.762 Y170.837 E0.026
G1 X127.071 Y169.809 E0.14372
G1 X126.593 Y169.597 E0.02609
G1 X124.026 Y168.295 E0.1436
G1 X123.571 Y168.033 E0.02619
G1 X121.157 Y166.47 E0.14348
G1 X120.732 Y166.162 E0.02619
G1 X118.492 Y164.352 E0.14368
G1 X118.105 Y164.005 E0.02593
G1 X116.067 Y161.975 E0.14351
G1 X115.715 Y161.586 E0.02617
G1 X113.899 Y159.351 E0.14367
G1 X113.59 Y158.927 E0.02617
G1 X112.019 Y156.515 E0.14361
G1 X111.758 Y156.063 E0.02604
G1 X110.447 Y153.5 E0.14363
G1 X110.233 Y153.023 E0.02608
G1 X109.197 Y150.338 E0.14358
G1 X109.035 Y149.84 E0.02613
G1 X108.286 Y147.064 E0.14345
G1 X108.176 Y146.55 E0.02622
G1 X107.722 Y143.706 E0.14368
G1 X107.666 Y143.189 E0.02594
G1 X107.51 Y140.316 E0.14355
G1 X107.509 Y139.793 E0.02609
G1 X107.654 Y136.918 E0.14362
G1 X107.708 Y136.397 E0.02613
G1 X108.153 Y133.552 E0.14366
G1 X108.262 Y133.037 E0.02626
G1 X109.003 Y130.258 E0.14349
G1 X109.163 Y129.762 E0.026
G1 X110.19 Y127.073 E0.14361
G1 X110.402 Y126.595 E0.02609
G1 X111.704 Y124.028 E0.1436
G1 X111.966 Y123.573 E0.02619
G1 X113.53 Y121.157 E0.14359
G1 X113.838 Y120.732 E0.02619
G1 X115.648 Y118.492 E0.14368
G1 X115.995 Y118.105 E0.02593
G1 X118.025 Y116.067 E0.14351
G0 F3600 X118.308 Y116.35
G1 F1200 X118.666 Y116.026 E0.02409
G1 X120.901 Y114.21 E0.14367
G1 X121.291 Y113.926 E0.02407
G1 X123.701 Y112.356 E0.1435
G1 X124.117 Y112.115 E0.02399
G1 X126.68 Y110.804 E0.14363
G1 X127.119 Y110.608 E0.02399
G1 X129.806 Y109.571 E0.14369
G1 X130.264 Y109.421 E0.02404
G1 X133.04 Y108.672 E0.14345
G1 X133.513 Y108.571 E0.02413
G1 X136.357 Y108.117 E0.14368
G1 X136.833 Y108.066 E0.02388
G1 X139.707 Y107.91 E0.1436
G1 X140.188 Y107.909 E0.024
G1 X143.062 Y108.054 E0.14357
G1 X143.541 Y108.103 E0.02402
G1 X146.386 Y108.548 E0.14366
G1 X146.86 Y108.648 E0.02417
G1 X149.639 Y109.389 E0.14349
G1 X150.096 Y109.537 E0.02397
G1 X152.787 Y110.565 E0.14372
G1 X153.226 Y110.76 E0.02397
G1 X155.791 Y112.061 E0.14349
G1 X156.21 Y112.301 E0.02409
G1 X158.626 Y113.865 E0.14359
G1 X159.017 Y114.149 E0.02411
G1 X161.257 Y115.959 E0.14368
G1 X161.612 Y116.278 E0.02381
G1 X163.65 Y118.308 E0.14351
G1 X163.974 Y118.666 E0.02409
G1 X165.79 Y120.901 E0.14367
G1 X166.074 Y121.291 E0.02407
G1 X167.644 Y123.701 E0.1435
G1 X167.885 Y124.117 E0.02399
G1 X169.196 Y126.68 E0.14363
G1 X169.392 Y127.119 E0.02399
G1 X170.429 Y129.806 E0.14369
G1 X170.579 Y130.264 E0.02404
G1 X171.328 Y133.04 E0.14345
G1 X171.429 Y133.512 E0.02408
G1 X171.883 Y136.354 E0.14359
G1 X171.934 Y136.831 E0.02393
G1 X172.09 Y139.706 E0.14365
G1 X172.091 Y140.187 E0.024
G1 X171.946 Y143.062 E0.14362
G1 X171.897 Y143.541 E0.02402
G1 X171.452 Y146.386 E0.14366
G1 X171.352 Y146.86 E0.02417
G1 X170.611 Y149.639 E0.14349
G1 X170.463 Y150.095 E0.02392
G1 X169.436 Y152.784 E0.14361
G1 X169.241 Y153.224 E0.02401
G1 X167.939 Y155.791 E0.1436
G1 X167.699 Y156.21 E0.02409
G1 X166.135 Y158.626 E0.14359
G1 X165.851 Y159.017 E0.02411
G1 X164.041 Y161.257 E0.14368
G1 X163.722 Y161.612 E0.02381
G1 X161.692 Y163.65 E0.14351
G1 X161.334 Y163.974 E0.02409
G1 X159.099 Y165.79 E0.14367
G1 X158.709 Y166.074 E0.02407
G1 X156.299 Y167.644 E0.1435
G1 X155.883 Y167.885 E0.02399
G1 X153.32 Y169.196 E0.14363
G1 X152.881 Y169.392 E0.02399
G1 X150.194 Y170.429 E0.14369
G1 X149.736 Y170.579 E0.02404
G1 X146.96 Y171.328 E0.14345
G1 X146.487 Y171.429 E0.02413
G1 X143.643 Y171.883 E0.14368
G1 X143.167 Y171.934 E0.02388
G1 X140.293 Y172.09 E0.1436
G1 X139.812 Y172.091 E0.024
G1 X136.938 Y171.946 E0.14357
G1 X136.459 Y171.897 E0.02402
G1 X133.614 Y171.452 E0.14366
G1 X133.14 Y171.352 E0.02417
G1 X130.361 Y170.611 E0.14349
G1 X129.904 Y170.463 E0.02397
G1 X127.213 Y169.435 E0.14372
G1 X126.774 Y169.24 E0.02397
G1 X124.207 Y167.938 E0.1436
G1 X123.788 Y167.697 E0.02412
G1 X121.374 Y166.134 E0.14348
G1 X120.983 Y165.851 E0.02408
G1 X118.743 Y164.041 E0.14368
G1 X118.388 Y163.722 E0.02381
G1 X116.35 Y161.692 E0.14351
G1 X116.026 Y161.334 E0.02409
G1 X114.21 Y159.099 E0.14367
G1 X113.925 Y158.709 E0.0241
G1 X112.354 Y156.297 E0.14361
G1 X112.114 Y155.881 E0.02396
G1 X110.803 Y153.318 E0.14363
G1 X110.606 Y152.879 E0.02401
G1 X109.57 Y150.194 E0.14358
G1 X109.421 Y149.736 E0.02403
G1 X108.672 Y146.96 E0.14345
G1 X108.571 Y146.487 E0.02413
G1 X108.117 Y143.643 E0.14368
G1 X108.066 Y143.167 E0.02388
G1 X107.91 Y140.294 E0.14355
G1 X107.909 Y139.813 E0.024
G1 X108.054 Y136.938 E0.14362
G1 X108.103 Y136.459 E0.02402
G1 X108.548 Y133.614 E0.14366
G1 X108.648 Y133.14 E0.02417
G1 X109.389 Y130.361 E0.14349
G1 X109.537 Y129.905 E0.02392
G1 X110.564 Y127.216 E0.14361
G1 X110.759 Y126.776 E0.02401
G1 X112.061 Y124.209 E0.1436
G1 X112.301 Y123.79 E0.02409
G1 X113.865 Y121.374 E0.14359
G1 X114.149 Y120.983 E0.02411
G1 X115.959 Y118.743 E0.14368
G1 X116.278 Y118.388 E0.02381
G1 X118.308 Y116.35 E0.14351
G0 F3600 X118.591 Y116.632
G1 F1200 X118.918 Y116.336 E0.02201
G1 X121.153 Y114.52 E0.14367
G1 X121.509 Y114.261 E0.02196
G1 X123.919 Y112.691 E0.1435
G1 X124.299 Y112.471 E0.02191
G1 X126.862 Y111.16 E0.14363
G1 X127.263 Y110.981 E0.02191
G1 X129.95 Y109.944 E0.14369
G1 X130.368 Y109.807 E0.02195
G1 X133.144 Y109.058 E0.14345
G1 X133.576 Y108.966 E0.02204
G1 X136.42 Y108.512 E0.14368
G1 X136.854 Y108.465 E0.02178
G1 X139.728 Y108.309 E0.1436
G1 X140.168 Y108.308 E0.02195
G1 X143.042 Y108.453 E0.14357
G1 X143.479 Y108.498 E0.02192
G1 X146.324 Y108.943 E0.14366
G1 X146.757 Y109.035 E0.02208
G1 X149.536 Y109.776 E0.14349
G1 X149.953 Y109.911 E0.02187
G1 X152.644 Y110.939 E0.14372
G1 X153.045 Y111.116 E0.02187
G1 X155.61 Y112.417 E0.14349
G1 X155.992 Y112.637 E0.02199
G1 X158.408 Y114.201 E0.14359
G1 X158.766 Y114.46 E0.02204
G1 X161.006 Y116.27 E0.14368
G1 X161.33 Y116.561 E0.02173
G1 X163.368 Y118.591 E0.14351
G1 X163.664 Y118.918 E0.02201
G1 X165.48 Y121.153 E0.14367
G1 X165.739 Y121.509 E0.02196
G1 X167.309 Y123.919 E0.1435
G1 X167.529 Y124.299 E0.02191
G1 X168.84 Y126.862 E0.14363
G1 X169.019 Y127.263 E0.02191
G1 X170.056 Y129.95 E0.14369
G1 X170.193 Y130.368 E0.02195
G1 X170.942 Y133.144 E0.14345
G1 X171.034 Y133.575 E0.02199
G1 X171.488 Y136.417 E0.14359
G1 X171.535 Y136.852 E0.02183
G1 X171.691 Y139.727 E0.14365
G1 X171.692 Y140.167 E0.02195
G1 X171.547 Y143.042 E0.14362
G1 X171.502 Y143.479 E0.02192
G1 X171.057 Y146.324 E0.14366
G1 X170.965 Y146.757 E0.02208
G1 X170.224 Y149.536 E0.14349
G1 X170.09 Y149.953 E0.02185
G1 X169.063 Y152.642 E0.14361
G1 X168.885 Y153.043 E0.02189
G1 X167.583 Y155.61 E0.1436
G1 X167.363 Y155.992 E0.02199
G1 X165.799 Y158.408 E0.14359
G1 X165.54 Y158.766 E0.02204
G1 X163.73 Y161.006 E0.14368
G1 X163.439 Y161.33 E0.02173
G1 X161.409 Y163.368 E0.14351
G1 X161.082 Y163.664 E0.02201
G1 X158.847 Y165.48 E0.14367
G1 X158.491 Y165.739 E0.02196
G1 X156.081 Y167.309 E0.1435
G1 X155.701 Y167.529 E0.02191
G1 X153.138 Y168.84 E0.14363
G1 X152.737 Y169.019 E0.02191
G1 X150.05 Y170.056 E0.14369
G1 X149.632 Y170.193 E0.02195
G1 X146.856 Y170.942 E0.14345
G1 X146.424 Y171.034 E0.02204
G1 X143.58 Y171.488 E0.14368
G1 X143.146 Y171.535 E0.02178
G1 X140.272 Y171.691 E0.1436
G1 X139.832 Y171.692 E0.02195
G1 X136.958 Y171.547 E0.14357
G1 X136.521 Y171.502 E0.02192
G1 X133.676 Y171.057 E0.14366
G1 X133.243 Y170.965 E0.02208
G1 X130.464 Y170.224 E0.14349
G1 X130.047 Y170.089 E0.02187
G1 X127.356 Y169.061 E0.14372
G1 X126.955 Y168.884 E0.02187
G1 X124.388 Y167.582 E0.1436
G1 X124.005 Y167.362 E0.02204
G1 X121.591 Y165.799 E0.14348
G1 X121.234 Y165.54 E0.022
G1 X118.994 Y163.73 E0.14368
G1 X118.67 Y163.439 E0.02173
G1 X116.632 Y161.409 E0.14351
G1 X116.336 Y161.082 E0.02201
G1 X114.52 Y158.847 E0.14367
G1 X114.261 Y158.49 E0.022
G1 X112.69 Y156.078 E0.14361
G1 X112.47 Y155.699 E0.02186
G1 X111.159 Y153.136 E0.14363
G1 X110.98 Y152.735 E0.02191
G1 X109.944 Y150.05 E0.14358
G1 X109.807 Y149.632 E0.02195
G1 X109.058 Y146.856 E0.14345
G1 X108.966 Y146.424 E0.02204
G1 X108.512 Y143.58 E0.14368
G1 X108.465 Y143.146 E0.02178
G1 X108.309 Y140.273 E0.14355
G1 X108.308 Y139.833 E0.02195
G1 X108.453 Y136.958 E0.14362
G1 X108.498 Y136.521 E0.02192
G1 X108.943 Y133.676 E0.14366
G1 X109.035 Y133.243 E0.02208
G1 X109.776 Y130.464 E0.14349
G1 X109.91 Y130.047 E0.02185
G1 X110.937 Y127.358 E0.14361
G1 X111.115 Y126.957 E0.02189
G1 X112.417 Y124.39 E0.1436
G1 X112.637 Y124.008 E0.02199
G1 X114.201 Y121.592 E0.14359
G1 X114.46 Y121.234 E0.02204
G1 X116.27 Y118.994 E0.14368
G1 X116.561 Y118.67 E0.02173
G1 X118.591 Y116.632 E0.14351
G0 F3600 X118.875 Y116.914
G1 F1200 X119.171 Y116.647 E0.01989
G1 X121.406 Y114.831 E0.14367
G1 X121.728 Y114.596 E0.01989
G1 X124.138 Y113.026 E0.1435
G1 X124.482 Y112.827 E0.01983
G1 X127.045 Y111.516 E0.14363
G1 X127.407 Y111.354 E0.01979
G1 X130.094 Y110.317 E0.14369
G1 X130.472 Y110.193 E0.01985
G1 X133.248 Y109.444 E0.14345
G1 X133.639 Y109.361 E0.01994
G1 X136.483 Y108.907 E0.14368
G1 X136.876 Y108.865 E0.01972
G1 X139.75 Y108.709 E0.1436
G1 X140.147 Y108.708 E0.01981
G1 X143.021 Y108.853 E0.14357
G1 X143.417 Y108.894 E0.01986
G1 X146.262 Y109.339 E0.14366
G1 X146.654 Y109.421 E0.01998
G1 X149.433 Y110.162 E0.14349
G1 X149.81 Y110.284 E0.01977
G1 X152.501 Y111.312 E0.14372
G1 X152.864 Y111.473 E0.01981
G1 X155.429 Y112.774 E0.14349
G1 X155.775 Y112.973 E0.01991
G1 X158.191 Y114.537 E0.14359
G1 X158.514 Y114.771 E0.0199
G1 X160.754 Y116.581 E0.14368
G1 X161.048 Y116.845 E0.01971
G1 X163.086 Y118.875 E0.14351
G1 X163.353 Y119.171 E0.01989
G1 X165.169 Y121.406 E0.14367
G1 X165.404 Y121.728 E0.01989
G1 X166.974 Y124.138 E0.1435
G1 X167.173 Y124.482 E0.01983
G1 X168.484 Y127.045 E0.14363
G1 X168.646 Y127.407 E0.01979
G1 X169.683 Y130.094 E0.14369
G1 X169.807 Y130.472 E0.01985
G1 X170.556 Y133.248 E0.14345
G1 X170.639 Y133.639 E0.01994
G1 X171.093 Y136.481 E0.14359
G1 X171.135 Y136.874 E0.01972
G1 X171.291 Y139.749 E0.14365
G1 X171.292 Y140.146 E0.01981
G1 X171.147 Y143.021 E0.14362
G1 X171.106 Y143.417 E0.01986
G1 X170.661 Y146.262 E0.14366
G1 X170.579 Y146.654 E0.01998
G1 X169.838 Y149.433 E0.14349
G1 X169.716 Y149.81 E0.01977
G1 X168.689 Y152.499 E0.14361
G1 X168.528 Y152.862 E0.01981
G1 X167.226 Y155.429 E0.1436
G1 X167.027 Y155.775 E0.01991
G1 X165.463 Y158.191 E0.14359
G1 X165.229 Y158.514 E0.0199
G1 X163.419 Y160.754 E0.14368
G1 X163.155 Y161.048 E0.01971
G1 X161.125 Y163.086 E0.14351
G1 X160.829 Y163.353 E0.01989
G1 X158.594 Y165.169 E0.14367
G1 X158.272 Y165.404 E0.01989
G1 X155.862 Y166.974 E0.1435
G1 X155.518 Y167.173 E0.01983
G1 X152.955 Y168.484 E0.14363
G1 X152.593 Y168.646 E0.01979
G1 X149.906 Y169.683 E0.14369
G1 X149.528 Y169.807 E0.01985
G1 X146.752 Y170.556 E0.14345
G1 X146.361 Y170.639 E0.01994
G1 X143.517 Y171.093 E0.14368
G1 X143.124 Y171.135 E0.01972
G1 X140.25 Y171.291 E0.1436
G1 X139.853 Y171.292 E0.01981
G1 X136.979 Y171.147 E0.14357
G1 X136.583 Y171.106 E0.01986
G1 X133.738 Y170.661 E0.14366
G1 X133.346 Y170.579 E0.01998
G1 X130.567 Y169.838 E0.14349
G1 X130.19 Y169.716 E0.01977
G1 X127.499 Y168.688 E0.14372
G1 X127.136 Y168.527 E0.01981
G1 X124.569 Y167.225 E0.1436
G1 X124.223 Y167.026 E0.01991
G1 X121.809 Y165.463 E0.14348
G1 X121.486 Y165.229 E0.0199
G1 X119.246 Y163.419 E0.14368
G1 X118.952 Y163.155 E0.01971
G1 X116.914 Y161.125 E0.14351
G1 X116.647 Y160.829 E0.01989
G1 X114.831 Y158.594 E0.14367
G1 X114.596 Y158.272 E0.01989
G1 X113.025 Y155.86 E0.14361
G1 X112.826 Y155.516 E0.01983
G1 X111.515 Y152.953 E0.14363
G1 X111.353 Y152.591 E0.01979
G1 X110.317 Y149.906 E0.14358
G1 X110.193 Y149.528 E0.01985
G1 X109.444 Y146.752 E0.14345
G1 X109.361 Y146.361 E0.01994
G1 X108.907 Y143.517 E0.14368
G1 X108.865 Y143.124 E0.01972
G1 X108.709 Y140.251 E0.14355
G1 X108.708 Y139.854 E0.01981
G1 X108.853 Y136.979 E0.14362
G1 X108.894 Y136.583 E0.01986
G1 X109.339 Y133.738 E0.14366
G1 X109.421 Y133.346 E0.01998
G1 X110.162 Y130.567 E0.14349
G1 X110.284 Y130.19 E0.01977
G1 X111.311 Y127.501 E0.14361
G1 X111.472 Y127.138 E0.01981
G1 X112.774 Y124.571 E0.1436
G1 X112.973 Y124.225 E0.01991
G1 X114.537 Y121.809 E0.14359
G1 X114.771 Y121.486 E0.0199
G1 X116.581 Y119.246 E0.14368
G1 X116.845 Y118.952 E0.01971
G1 X118.875 Y116.914 E0.14351
G0 F3600 X119.158 Y117.197
G1 F1200 X119.423 Y116.957 E0.01784
G1 X121.658 Y115.141 E0.14367
G1 X121.946 Y114.931 E0.01778
G1 X124.356 Y113.361 E0.1435
G1 X124.664 Y113.183 E0.01775
G1 X127.227 Y111.872 E0.14363
G1 X127.551 Y111.727 E0.01771
G1 X130.238 Y110.69 E0.14369
G1 X130.576 Y110.579 E0.01775
G1 X133.352 Y109.83 E0.14345
G1 X133.702 Y109.756 E0.01785
G1 X136.546 Y109.302 E0.14368
G1 X136.898 Y109.264 E0.01766
G1 X139.772 Y109.108 E0.1436
G1 X140.127 Y109.107 E0.01771
G1 X143.001 Y109.252 E0.14357
G1 X143.355 Y109.289 E0.01776
G1 X146.2 Y109.734 E0.14366
