;FLAVOR:RepRap
;TIME:2675
;Filament used: 2.00845m
;Layer height: 0.2
;MINX:108.259
;MINY:108.259
;MINZ:0.3
;MAXX:171.741
;MAXY:171.741
;MAXZ:9.9
;Generated with Cura_SteamEngine 4.3.0
T0
M190 S60
M104 S250
M109 S250
M82 ;absolute extrusion mode
G28; Home
G1 Z15.0 F6000 ;Move the platform down 15mm
;Prime the extruder
G92 E0
G1 F200 E3
G92 E0
G29; Auto-bed-leveling
G0 Z0
G92 Z-1; Up 1mm
M83 ;relative extrusion mode
G1 F1500 E-6.5
;LAYER_COUNT:49
;LAYER:0
M107
G0 F3600 X118.527 Y116.624 Z0.3
;TYPE:SKIRT
G1 F1500 E6.5
G1 F1200 X118.917 Y116.271 E0.02624
G1 X121.091 Y114.505 E0.13974
G1 X121.515 Y114.197 E0.02615
G1 X123.859 Y112.67 E0.13957
G1 X124.311 Y112.407 E0.02609
G1 X126.804 Y111.132 E0.1397
G1 X127.28 Y110.919 E0.02602
G1 X129.894 Y109.91 E0.13979
G1 X130.393 Y109.747 E0.02619
G1 X133.093 Y109.019 E0.13951
G1 X133.607 Y108.91 E0.02621
G1 X136.375 Y108.468 E0.13985
G1 X136.891 Y108.412 E0.02589
G1 X139.685 Y108.26 E0.1396
G1 X140.209 Y108.259 E0.02614
G1 X143.004 Y108.4 E0.13962
G1 X143.524 Y108.454 E0.02608
G1 X146.293 Y108.887 E0.13982
G1 X146.808 Y108.996 E0.02626
G1 X149.51 Y109.716 E0.13951
G1 X150.009 Y109.877 E0.02616
G1 X152.627 Y110.878 E0.13983
G1 X153.103 Y111.089 E0.02598
G1 X155.598 Y112.355 E0.13958
G1 X156.053 Y112.616 E0.02617
G1 X158.403 Y114.137 E0.13966
G1 X158.828 Y114.445 E0.02619
G1 X161.007 Y116.205 E0.13974
G1 X161.393 Y116.552 E0.0259
G1 X163.376 Y118.527 E0.13963
G1 X163.729 Y118.917 E0.02624
G1 X165.495 Y121.091 E0.13974
G1 X165.803 Y121.515 E0.02615
G1 X167.33 Y123.859 E0.13957
G1 X167.593 Y124.311 E0.02609
G1 X168.868 Y126.804 E0.1397
G1 X169.081 Y127.28 E0.02602
G1 X170.09 Y129.894 E0.13979
G1 X170.253 Y130.393 E0.02619
G1 X170.981 Y133.093 E0.13951
G1 X171.09 Y133.606 E0.02617
G1 X171.532 Y136.372 E0.13975
G1 X171.588 Y136.889 E0.02594
G1 X171.74 Y139.684 E0.13965
G1 X171.741 Y140.208 E0.02614
G1 X171.6 Y143.004 E0.13967
G1 X171.546 Y143.524 E0.02608
G1 X171.113 Y146.293 E0.13982
G1 X171.004 Y146.808 E0.02626
G1 X170.284 Y149.51 E0.13951
G1 X170.123 Y150.008 E0.02611
G1 X169.123 Y152.624 E0.13972
G1 X168.912 Y153.101 E0.02602
G1 X167.645 Y155.598 E0.1397
G1 X167.384 Y156.053 E0.02617
G1 X165.863 Y158.403 E0.13966
G1 X165.555 Y158.828 E0.02619
G1 X163.795 Y161.007 E0.13974
G1 X163.448 Y161.393 E0.0259
G1 X161.473 Y163.376 E0.13963
G1 X161.083 Y163.729 E0.02624
G1 X158.909 Y165.495 E0.13974
G1 X158.485 Y165.803 E0.02615
G1 X156.141 Y167.33 E0.13957
G1 X155.689 Y167.593 E0.02609
G1 X153.196 Y168.868 E0.1397
G1 X152.72 Y169.081 E0.02602
G1 X150.106 Y170.09 E0.13979
G1 X149.607 Y170.253 E0.02619
G1 X146.907 Y170.981 E0.13951
G1 X146.393 Y171.09 E0.02621
G1 X143.625 Y171.532 E0.13985
G1 X143.109 Y171.588 E0.02589
G1 X140.315 Y171.74 E0.1396
G1 X139.791 Y171.741 E0.02614
G1 X136.996 Y171.6 E0.13962
G1 X136.476 Y171.546 E0.02608
G1 X133.707 Y171.113 E0.13982
G1 X133.192 Y171.004 E0.02626
G1 X130.49 Y170.284 E0.13951
G1 X129.991 Y170.123 E0.02616
G1 X127.373 Y169.122 E0.13983
G1 X126.897 Y168.911 E0.02598
G1 X124.4 Y167.644 E0.1397
G1 X123.945 Y167.382 E0.02619
G1 X121.597 Y165.862 E0.13955
G1 X121.172 Y165.555 E0.02616
G1 X118.993 Y163.795 E0.13974
G1 X118.607 Y163.448 E0.0259
G1 X116.624 Y161.473 E0.13963
G1 X116.271 Y161.083 E0.02624
G1 X114.505 Y158.909 E0.13974
G1 X114.196 Y158.485 E0.02617
G1 X112.668 Y156.139 E0.13968
G1 X112.406 Y155.687 E0.02606
G1 X111.131 Y153.194 E0.1397
G1 X110.918 Y152.717 E0.02606
G1 X109.91 Y150.105 E0.13968
G1 X109.747 Y149.607 E0.02614
G1 X109.019 Y146.907 E0.13951
G1 X108.91 Y146.393 E0.02621
G1 X108.468 Y143.625 E0.13985
G1 X108.412 Y143.109 E0.02589
G1 X108.26 Y140.316 E0.13955
G1 X108.259 Y139.792 E0.02614
G1 X108.4 Y136.996 E0.13967
G1 X108.454 Y136.476 E0.02608
G1 X108.887 Y133.707 E0.13982
G1 X108.996 Y133.192 E0.02626
G1 X109.716 Y130.49 E0.13951
G1 X109.877 Y129.992 E0.02611
G1 X110.877 Y127.376 E0.13972
G1 X111.088 Y126.899 E0.02602
G1 X112.355 Y124.402 E0.1397
G1 X112.616 Y123.947 E0.02617
G1 X114.137 Y121.597 E0.13966
G1 X114.445 Y121.172 E0.02619
G1 X116.205 Y118.993 E0.13974
G1 X116.552 Y118.607 E0.0259
G1 X118.527 Y116.624 E0.13963
G0 F3600 X118.811 Y116.906
G1 F1200 X119.17 Y116.582 E0.02413
G1 X121.344 Y114.816 E0.13974
G1 X121.733 Y114.532 E0.02403
G1 X124.077 Y113.005 E0.13957
G1 X124.493 Y112.764 E0.02399
G1 X126.986 Y111.489 E0.1397
G1 X127.425 Y111.293 E0.02399
G1 X130.039 Y110.284 E0.13979
G1 X130.497 Y110.134 E0.02404
G1 X133.197 Y109.406 E0.13951
G1 X133.67 Y109.305 E0.02413
G1 X136.438 Y108.863 E0.13985
G1 X136.913 Y108.812 E0.02383
G1 X139.707 Y108.66 E0.1396
G1 X140.189 Y108.659 E0.02405
G1 X142.984 Y108.8 E0.13962
G1 X143.463 Y108.849 E0.02402
G1 X146.232 Y109.282 E0.13982
G1 X146.705 Y109.382 E0.02412
G1 X149.407 Y110.102 E0.13951
G1 X149.866 Y110.25 E0.02406
G1 X152.484 Y111.251 E0.13983
G1 X152.922 Y111.446 E0.02392
G1 X155.417 Y112.712 E0.13958
G1 X155.835 Y112.952 E0.02405
G1 X158.185 Y114.473 E0.13966
G1 X158.576 Y114.757 E0.02411
G1 X160.755 Y116.517 E0.13974
G1 X161.111 Y116.836 E0.02385
G1 X163.094 Y118.811 E0.13963
G1 X163.418 Y119.17 E0.02413
G1 X165.184 Y121.344 E0.13974
G1 X165.468 Y121.733 E0.02403
G1 X166.995 Y124.077 E0.13957
G1 X167.236 Y124.493 E0.02399
G1 X168.511 Y126.986 E0.1397
G1 X168.707 Y127.425 E0.02399
G1 X169.716 Y130.039 E0.13979
G1 X169.866 Y130.497 E0.02404
G1 X170.594 Y133.197 E0.13951
G1 X170.695 Y133.669 E0.02408
G1 X171.137 Y136.435 E0.13975
G1 X171.188 Y136.911 E0.02388
G1 X171.34 Y139.706 E0.13965
G1 X171.341 Y140.188 E0.02405
G1 X171.2 Y142.984 E0.13967
G1 X171.151 Y143.463 E0.02402
G1 X170.718 Y146.232 E0.13982
G1 X170.618 Y146.705 E0.02412
G1 X169.898 Y149.407 E0.13951
G1 X169.75 Y149.865 E0.02401
G1 X168.75 Y152.481 E0.13972
G1 X168.555 Y152.92 E0.02397
G1 X167.288 Y155.417 E0.1397
G1 X167.048 Y155.835 E0.02405
G1 X165.527 Y158.185 E0.13966
G1 X165.243 Y158.576 E0.02411
G1 X163.483 Y160.755 E0.13974
G1 X163.164 Y161.111 E0.02385
G1 X161.189 Y163.094 E0.13963
G1 X160.83 Y163.418 E0.02413
G1 X158.656 Y165.184 E0.13974
G1 X158.267 Y165.468 E0.02403
G1 X155.923 Y166.995 E0.13957
G1 X155.507 Y167.236 E0.02399
G1 X153.014 Y168.511 E0.1397
G1 X152.575 Y168.707 E0.02399
G1 X149.961 Y169.716 E0.13979
G1 X149.503 Y169.866 E0.02404
G1 X146.803 Y170.594 E0.13951
G1 X146.33 Y170.695 E0.02413
G1 X143.562 Y171.137 E0.13985
G1 X143.087 Y171.188 E0.02383
G1 X140.293 Y171.34 E0.1396
G1 X139.811 Y171.341 E0.02405
G1 X137.016 Y171.2 E0.13962
G1 X136.537 Y171.151 E0.02402
G1 X133.768 Y170.718 E0.13982
G1 X133.295 Y170.618 E0.02412
G1 X130.593 Y169.898 E0.13951
G1 X130.134 Y169.75 E0.02406
G1 X127.516 Y168.749 E0.13983
G1 X127.078 Y168.554 E0.02392
G1 X124.581 Y167.287 E0.1397
G1 X124.162 Y167.046 E0.02412
G1 X121.814 Y165.526 E0.13955
G1 X121.424 Y165.243 E0.02404
G1 X119.245 Y163.483 E0.13974
G1 X118.889 Y163.164 E0.02385
G1 X116.906 Y161.189 E0.13963
G1 X116.582 Y160.83 E0.02413
G1 X114.816 Y158.656 E0.13974
G1 X114.531 Y158.267 E0.02406
G1 X113.003 Y155.921 E0.13968
G1 X112.763 Y155.505 E0.02396
G1 X111.488 Y153.012 E0.1397
G1 X111.291 Y152.573 E0.02401
G1 X110.283 Y149.961 E0.13968
G1 X110.134 Y149.503 E0.02403
G1 X109.406 Y146.803 E0.13951
G1 X109.305 Y146.33 E0.02413
G1 X108.863 Y143.562 E0.13985
G1 X108.812 Y143.087 E0.02383
G1 X108.66 Y140.294 E0.13955
G1 X108.659 Y139.812 E0.02405
G1 X108.8 Y137.016 E0.13967
G1 X108.849 Y136.537 E0.02402
G1 X109.282 Y133.768 E0.13982
G1 X109.382 Y133.295 E0.02412
G1 X110.102 Y130.593 E0.13951
G1 X110.25 Y130.135 E0.02401
G1 X111.25 Y127.519 E0.13972
G1 X111.445 Y127.08 E0.02397
G1 X112.712 Y124.583 E0.1397
G1 X112.952 Y124.165 E0.02405
G1 X114.473 Y121.815 E0.13966
G1 X114.757 Y121.424 E0.02411
G1 X116.517 Y119.245 E0.13974
G1 X116.836 Y118.889 E0.02385
G1 X118.811 Y116.906 E0.13963
G0 F3600 X119.094 Y117.188
G1 F1200 X119.422 Y116.892 E0.02204
G1 X121.596 Y115.126 E0.13974
G1 X121.951 Y114.867 E0.02192
G1 X124.295 Y113.34 E0.13957
G1 X124.676 Y113.12 E0.02195
G1 X127.169 Y111.845 E0.1397
G1 X127.569 Y111.666 E0.02186
G1 X130.183 Y110.657 E0.13979
G1 X130.602 Y110.52 E0.02199
G1 X133.302 Y109.792 E0.13951
G1 X133.733 Y109.7 E0.02199
G1 X136.501 Y109.258 E0.13985
G1 X136.935 Y109.211 E0.02178
G1 X139.729 Y109.059 E0.1396
G1 X140.169 Y109.058 E0.02195
G1 X142.964 Y109.199 E0.13962
G1 X143.401 Y109.244 E0.02192
G1 X146.17 Y109.677 E0.13982
G1 X146.602 Y109.769 E0.02204
G1 X149.304 Y110.489 E0.13951
G1 X149.723 Y110.624 E0.02196
G1 X152.341 Y111.625 E0.13983
G1 X152.741 Y111.803 E0.02184
G1 X155.236 Y113.069 E0.13958
G1 X155.618 Y113.288 E0.02197
G1 X157.968 Y114.809 E0.13966
G1 X158.325 Y115.068 E0.022
G1 X160.504 Y116.828 E0.13974
G1 X160.829 Y117.119 E0.02176
G1 X162.812 Y119.094 E0.13963
G1 X163.108 Y119.422 E0.02204
G1 X164.874 Y121.596 E0.13974
G1 X165.133 Y121.951 E0.02192
G1 X166.66 Y124.295 E0.13957
G1 X166.88 Y124.676 E0.02195
G1 X168.155 Y127.169 E0.1397
G1 X168.334 Y127.569 E0.02186
G1 X169.343 Y130.183 E0.13979
G1 X169.48 Y130.602 E0.02199
G1 X170.208 Y133.302 E0.13951
G1 X170.3 Y133.732 E0.02194
G1 X170.742 Y136.498 E0.13975
G1 X170.789 Y136.933 E0.02183
G1 X170.941 Y139.728 E0.13965
G1 X170.942 Y140.168 E0.02195
G1 X170.801 Y142.964 E0.13967
G1 X170.756 Y143.401 E0.02192
G1 X170.323 Y146.17 E0.13982
G1 X170.231 Y146.602 E0.02204
G1 X169.511 Y149.304 E0.13951
G1 X169.376 Y149.723 E0.02196
G1 X168.376 Y152.339 E0.13972
G1 X168.198 Y152.739 E0.02184
G1 X166.931 Y155.236 E0.1397
G1 X166.712 Y155.618 E0.02197
G1 X165.191 Y157.968 E0.13966
G1 X164.932 Y158.325 E0.022
G1 X163.172 Y160.504 E0.13974
G1 X162.881 Y160.829 E0.02176
G1 X160.906 Y162.812 E0.13963
G1 X160.578 Y163.108 E0.02204
G1 X158.404 Y164.874 E0.13974
G1 X158.049 Y165.133 E0.02192
G1 X155.705 Y166.66 E0.13957
G1 X155.324 Y166.88 E0.02195
G1 X152.831 Y168.155 E0.1397
G1 X152.431 Y168.334 E0.02186
G1 X149.817 Y169.343 E0.13979
G1 X149.398 Y169.48 E0.02199
G1 X146.698 Y170.208 E0.13951
G1 X146.267 Y170.3 E0.02199
G1 X143.499 Y170.742 E0.13985
G1 X143.065 Y170.789 E0.02178
G1 X140.271 Y170.941 E0.1396
G1 X139.831 Y170.942 E0.02195
G1 X137.036 Y170.801 E0.13962
G1 X136.599 Y170.756 E0.02192
G1 X133.83 Y170.323 E0.13982
G1 X133.398 Y170.231 E0.02204
G1 X130.696 Y169.511 E0.13951
G1 X130.277 Y169.376 E0.02196
G1 X127.659 Y168.375 E0.13983
G1 X127.259 Y168.197 E0.02184
G1 X124.762 Y166.93 E0.1397
G1 X124.38 Y166.711 E0.02197
G1 X122.032 Y165.191 E0.13955
G1 X121.675 Y164.932 E0.022
G1 X119.496 Y163.172 E0.13974
G1 X119.171 Y162.881 E0.02176
G1 X117.188 Y160.906 E0.13963
G1 X116.892 Y160.578 E0.02204
G1 X115.126 Y158.404 E0.13974
G1 X114.867 Y158.048 E0.02196
G1 X113.339 Y155.702 E0.13968
G1 X113.119 Y155.322 E0.02191
G1 X111.844 Y152.829 E0.1397
G1 X111.665 Y152.429 E0.02186
G1 X110.657 Y149.817 E0.13968
G1 X110.52 Y149.398 E0.02199
G1 X109.792 Y146.698 E0.13951
G1 X109.7 Y146.267 E0.02199
G1 X109.258 Y143.499 E0.13985
G1 X109.211 Y143.065 E0.02178
G1 X109.059 Y140.272 E0.13955
G1 X109.058 Y139.832 E0.02195
G1 X109.199 Y137.036 E0.13967
G1 X109.244 Y136.599 E0.02192
G1 X109.677 Y133.83 E0.13982
G1 X109.769 Y133.398 E0.02204
G1 X110.489 Y130.696 E0.13951
G1 X110.624 Y130.277 E0.02196
G1 X111.624 Y127.661 E0.13972
G1 X111.802 Y127.261 E0.02184
G1 X113.069 Y124.764 E0.1397
G1 X113.288 Y124.382 E0.02197
G1 X114.809 Y122.032 E0.13966
G1 X115.068 Y121.675 E0.022
G1 X116.828 Y119.496 E0.13974
G1 X117.119 Y119.171 E0.02176
G1 X119.094 Y117.188 E0.13963
G0 F3600 X119.378 Y117.47
G1 F1200 X119.674 Y117.203 E0.01989
G1 X121.848 Y115.437 E0.13974
G1 X122.17 Y115.202 E0.01989
G1 X124.514 Y113.675 E0.13957
G1 X124.858 Y113.476 E0.01983
G1 X127.351 Y112.201 E0.1397
G1 X127.713 Y112.039 E0.01979
G1 X130.327 Y111.03 E0.13979
G1 X130.706 Y110.906 E0.01989
G1 X133.406 Y110.178 E0.13951
G1 X133.796 Y110.095 E0.01989
G1 X136.564 Y109.653 E0.13985
G1 X136.957 Y109.611 E0.01972
G1 X139.751 Y109.459 E0.1396
G1 X140.148 Y109.458 E0.01981
G1 X142.943 Y109.599 E0.13962
G1 X143.339 Y109.64 E0.01986
G1 X146.108 Y110.073 E0.13982
G1 X146.499 Y110.155 E0.01993
G1 X149.201 Y110.875 E0.13951
G1 X149.58 Y110.998 E0.01988
G1 X152.198 Y111.999 E0.13983
G1 X152.56 Y112.159 E0.01975
G1 X155.055 Y113.425 E0.13958
G1 X155.401 Y113.624 E0.01991
G1 X157.751 Y115.145 E0.13966
G1 X158.074 Y115.379 E0.0199
G1 X160.253 Y117.139 E0.13974
G1 X160.547 Y117.403 E0.01971
G1 X162.53 Y119.378 E0.13963
G1 X162.797 Y119.674 E0.01989
G1 X164.563 Y121.848 E0.13974
G1 X164.798 Y122.17 E0.01989
G1 X166.325 Y124.514 E0.13957
G1 X166.524 Y124.858 E0.01983
G1 X167.799 Y127.351 E0.1397
G1 X167.961 Y127.713 E0.01979
G1 X168.97 Y130.327 E0.13979
G1 X169.094 Y130.706 E0.01989
G1 X169.822 Y133.406 E0.13951
G1 X169.905 Y133.795 E0.01984
G1 X170.347 Y136.561 E0.13975
G1 X170.389 Y136.955 E0.01977
G1 X170.541 Y139.75 E0.13965
G1 X170.542 Y140.147 E0.01981
G1 X170.401 Y142.943 E0.13967
G1 X170.36 Y143.339 E0.01986
G1 X169.927 Y146.108 E0.13982
G1 X169.845 Y146.499 E0.01993
G1 X169.125 Y149.201 E0.13951
G1 X169.003 Y149.58 E0.01986
G1 X168.003 Y152.196 E0.13972
G1 X167.842 Y152.558 E0.01977
G1 X166.575 Y155.055 E0.1397
G1 X166.376 Y155.401 E0.01991
G1 X164.855 Y157.751 E0.13966
G1 X164.621 Y158.074 E0.0199
G1 X162.861 Y160.253 E0.13974
G1 X162.597 Y160.547 E0.01971
G1 X160.622 Y162.53 E0.13963
G1 X160.326 Y162.797 E0.01989
G1 X158.152 Y164.563 E0.13974
G1 X157.83 Y164.798 E0.01989
G1 X155.486 Y166.325 E0.13957
G1 X155.142 Y166.524 E0.01983
G1 X152.649 Y167.799 E0.1397
G1 X152.287 Y167.961 E0.01979
G1 X149.673 Y168.97 E0.13979
G1 X149.294 Y169.094 E0.01989
G1 X146.594 Y169.822 E0.13951
G1 X146.204 Y169.905 E0.01989
G1 X143.436 Y170.347 E0.13985
G1 X143.043 Y170.389 E0.01972
G1 X140.249 Y170.541 E0.1396
G1 X139.852 Y170.542 E0.01981
G1 X137.057 Y170.401 E0.13962
G1 X136.661 Y170.36 E0.01986
G1 X133.892 Y169.927 E0.13982
G1 X133.501 Y169.845 E0.01993
G1 X130.799 Y169.125 E0.13951
G1 X130.42 Y169.002 E0.01988
G1 X127.802 Y168.001 E0.13983
G1 X127.44 Y167.841 E0.01975
G1 X124.943 Y166.574 E0.1397
G1 X124.597 Y166.375 E0.01991
G1 X122.249 Y164.855 E0.13955
G1 X121.926 Y164.621 E0.0199
G1 X119.747 Y162.861 E0.13974
G1 X119.453 Y162.597 E0.01971
G1 X117.47 Y160.622 E0.13963
G1 X117.203 Y160.326 E0.01989
G1 X115.437 Y158.152 E0.13974
G1 X115.202 Y157.83 E0.01989
G1 X113.674 Y155.484 E0.13968
G1 X113.475 Y155.14 E0.01983
G1 X112.2 Y152.647 E0.1397
G1 X112.038 Y152.285 E0.01979
G1 X111.03 Y149.673 E0.13968
G1 X110.906 Y149.294 E0.01989
G1 X110.178 Y146.594 E0.13951
G1 X110.095 Y146.204 E0.01989
G1 X109.653 Y143.436 E0.13985
G1 X109.611 Y143.043 E0.01972
G1 X109.459 Y140.25 E0.13955
G1 X109.458 Y139.853 E0.01981
G1 X109.599 Y137.057 E0.13967
G1 X109.64 Y136.661 E0.01986
G1 X110.073 Y133.892 E0.13982
G1 X110.155 Y133.501 E0.01993
G1 X110.875 Y130.799 E0.13951
G1 X110.997 Y130.42 E0.01986
G1 X111.997 Y127.804 E0.13972
G1 X112.158 Y127.442 E0.01977
G1 X113.425 Y124.945 E0.1397
G1 X113.624 Y124.599 E0.01991
G1 X115.145 Y122.249 E0.13966
G1 X115.379 Y121.926 E0.0199
G1 X117.139 Y119.747 E0.13974
G1 X117.403 Y119.453 E0.01971
G1 X119.378 Y117.47 E0.13963
G0 F3600 X119.661 Y117.753
G1 F1200 X119.926 Y117.513 E0.01784
G1 X122.1 Y115.747 E0.13974
G1 X122.388 Y115.537 E0.01778
G1 X124.732 Y114.01 E0.13957
G1 X125.04 Y113.832 E0.01775
G1 X127.533 Y112.557 E0.1397
G1 X127.857 Y112.412 E0.01771
G1 X130.471 Y111.403 E0.13979
G1 X130.81 Y111.292 E0.0178
G1 X133.51 Y110.564 E0.13951
G1 X133.859 Y110.49 E0.0178
G1 X136.627 Y110.048 E0.13985
G1 X136.978 Y110.01 E0.01761
G1 X139.772 Y109.858 E0.1396
G1 X140.128 Y109.857 E0.01776
G1 X142.923 Y109.998 E0.13962
G1 X143.277 Y110.035 E0.01776
G1 X146.046 Y110.468 E0.13982
G1 X146.396 Y110.542 E0.01785
