;FLAVOR:RepRap
;TIME:2200
;Filament used: 1.80067m
;Layer height: 0.15
;MINX:109.01
;MINY:109.01
;MINZ:0.3
;MAXX:170.99
;MAXY:170.99
;MAXZ:7.95
;Generated with Cura_SteamEngine 4.3.0
T0
M190 S60
M104 S210
M109 S210
M82 ;absolute extrusion mode
G28; Home
G1 Z15.0 F6000 ;Move the platform down 15mm
;Prime the extruder
G92 E0
G1 F200 E3
G92 E0
G29; Auto-bed-leveling
G0 Z0
G92 Z-1.3; Up 1.3mm
M83 ;relative extrusion mode
G1 F1500 E-6.5
;LAYER_COUNT:52
;LAYER:0
M107
G0 F3600 X119.022 Y117.188 Z0.3
;TYPE:SKIRT
G1 F1500 E6.5
G1 F1800 X119.413 Y116.834 E0.02631
G1 X121.525 Y115.118 E0.13576
G1 X121.945 Y114.812 E0.02593
G1 X124.222 Y113.326 E0.13565
G1 X124.677 Y113.062 E0.02624
G1 X127.1 Y111.822 E0.13579
G1 X127.577 Y111.609 E0.02606
G1 X130.117 Y110.628 E0.13584
G1 X130.613 Y110.465 E0.02605
G1 X133.238 Y109.755 E0.13567
G1 X133.752 Y109.645 E0.02622
G1 X136.441 Y109.214 E0.13587
G1 X136.962 Y109.158 E0.02614
G1 X139.678 Y109.011 E0.1357
G1 X140.194 Y109.01 E0.02574
G1 X142.911 Y109.144 E0.13572
G1 X143.438 Y109.198 E0.02643
G1 X146.129 Y109.619 E0.13589
G1 X146.643 Y109.728 E0.02621
G1 X149.27 Y110.428 E0.13563
G1 X149.766 Y110.588 E0.026
G1 X152.31 Y111.559 E0.13585
G1 X152.787 Y111.77 E0.02602
G1 X155.213 Y112.999 E0.13568
G1 X155.669 Y113.261 E0.02624
G1 X157.953 Y114.739 E0.13573
G1 X158.376 Y115.045 E0.02605
G1 X160.495 Y116.754 E0.13582
G1 X160.883 Y117.102 E0.026
G1 X162.812 Y119.022 E0.13578
G1 X163.166 Y119.413 E0.02631
G1 X164.882 Y121.525 E0.13576
G1 X165.188 Y121.945 E0.02593
G1 X166.674 Y124.222 E0.13565
G1 X166.938 Y124.677 E0.02624
G1 X168.178 Y127.1 E0.13579
G1 X168.391 Y127.577 E0.02606
G1 X169.372 Y130.117 E0.13584
G1 X169.535 Y130.613 E0.02605
G1 X170.245 Y133.238 E0.13567
G1 X170.355 Y133.751 E0.02618
G1 X170.786 Y136.438 E0.13577
G1 X170.842 Y136.96 E0.02619
G1 X170.989 Y139.677 E0.13575
G1 X170.99 Y140.193 E0.02574
G1 X170.856 Y142.911 E0.13577
G1 X170.802 Y143.438 E0.02643
G1 X170.381 Y146.129 E0.13589
G1 X170.272 Y146.643 E0.02621
G1 X169.572 Y149.27 E0.13563
G1 X169.412 Y149.766 E0.026
G1 X168.442 Y152.308 E0.13574
G1 X168.231 Y152.785 E0.02602
G1 X167.001 Y155.213 E0.13579
G1 X166.739 Y155.669 E0.02624
G1 X165.261 Y157.953 E0.13573
G1 X164.955 Y158.376 E0.02605
G1 X163.246 Y160.495 E0.13582
G1 X162.898 Y160.883 E0.026
G1 X160.978 Y162.812 E0.13578
G1 X160.587 Y163.166 E0.02631
G1 X158.475 Y164.882 E0.13576
G1 X158.055 Y165.188 E0.02593
G1 X155.778 Y166.674 E0.13565
G1 X155.323 Y166.938 E0.02624
G1 X152.9 Y168.178 E0.13579
G1 X152.423 Y168.391 E0.02606
G1 X149.883 Y169.372 E0.13584
G1 X149.387 Y169.535 E0.02605
G1 X146.762 Y170.245 E0.13567
G1 X146.248 Y170.355 E0.02622
G1 X143.559 Y170.786 E0.13587
G1 X143.038 Y170.842 E0.02614
G1 X140.322 Y170.989 E0.1357
G1 X139.806 Y170.99 E0.02574
G1 X137.089 Y170.856 E0.13572
G1 X136.562 Y170.802 E0.02643
G1 X133.871 Y170.381 E0.13589
G1 X133.357 Y170.272 E0.02621
G1 X130.73 Y169.572 E0.13563
G1 X130.234 Y169.412 E0.026
G1 X127.69 Y168.441 E0.13585
G1 X127.213 Y168.23 E0.02602
G1 X124.785 Y167 E0.13579
G1 X124.328 Y166.738 E0.02628
G1 X122.046 Y165.261 E0.13562
G1 X121.624 Y164.955 E0.02601
G1 X119.505 Y163.246 E0.13582
G1 X119.117 Y162.898 E0.026
G1 X117.188 Y160.978 E0.13578
G1 X116.834 Y160.587 E0.02631
G1 X115.118 Y158.475 E0.13576
G1 X114.812 Y158.054 E0.02597
G1 X113.325 Y155.775 E0.13576
G1 X113.061 Y155.321 E0.0262
G1 X111.821 Y152.898 E0.13579
G1 X111.608 Y152.421 E0.02606
G1 X110.628 Y149.883 E0.13573
G1 X110.465 Y149.387 E0.02605
G1 X109.755 Y146.762 E0.13567
G1 X109.645 Y146.248 E0.02622
G1 X109.214 Y143.559 E0.13587
G1 X109.158 Y143.038 E0.02614
G1 X109.011 Y140.323 E0.13565
G1 X109.01 Y139.807 E0.02574
G1 X109.144 Y137.089 E0.13577
G1 X109.198 Y136.562 E0.02643
G1 X109.619 Y133.871 E0.13589
G1 X109.728 Y133.357 E0.02621
G1 X110.428 Y130.73 E0.13563
G1 X110.588 Y130.234 E0.026
G1 X111.558 Y127.692 E0.13574
G1 X111.769 Y127.215 E0.02602
G1 X112.999 Y124.787 E0.13579
G1 X113.261 Y124.331 E0.02624
G1 X114.739 Y122.047 E0.13573
G1 X115.045 Y121.624 E0.02605
G1 X116.754 Y119.505 E0.13582
G1 X117.102 Y119.117 E0.026
G1 X119.022 Y117.188 E0.13578
G0 F3600 X119.306 Y117.47
G1 F1800 X119.665 Y117.145 E0.02416
G1 X121.777 Y115.429 E0.13576
G1 X122.164 Y115.147 E0.02389
G1 X124.441 Y113.661 E0.13565
G1 X124.859 Y113.418 E0.02412
G1 X127.282 Y112.178 E0.13579
G1 X127.721 Y111.982 E0.02399
G1 X130.261 Y111.001 E0.13584
G1 X130.717 Y110.852 E0.02393
G1 X133.342 Y110.142 E0.13567
G1 X133.815 Y110.04 E0.02414
G1 X136.504 Y109.609 E0.13587
G1 X136.983 Y109.558 E0.02403
G1 X139.699 Y109.411 E0.1357
G1 X140.175 Y109.41 E0.02375
G1 X142.892 Y109.544 E0.13572
G1 X143.376 Y109.593 E0.02427
G1 X146.067 Y110.014 E0.13589
G1 X146.54 Y110.114 E0.02412
G1 X149.167 Y110.814 E0.13563
G1 X149.623 Y110.961 E0.0239
G1 X152.167 Y111.932 E0.13585
G1 X152.606 Y112.127 E0.02397
G1 X155.032 Y113.356 E0.13568
G1 X155.452 Y113.597 E0.02416
G1 X157.736 Y115.075 E0.13573
G1 X158.125 Y115.356 E0.02394
G1 X160.244 Y117.065 E0.13582
G1 X160.601 Y117.386 E0.02395
G1 X162.53 Y119.306 E0.13578
G1 X162.855 Y119.665 E0.02416
G1 X164.571 Y121.777 E0.13576
G1 X164.853 Y122.164 E0.02389
G1 X166.339 Y124.441 E0.13565
G1 X166.582 Y124.859 E0.02412
G1 X167.822 Y127.282 E0.13579
G1 X168.018 Y127.721 E0.02399
G1 X168.999 Y130.261 E0.13584
G1 X169.148 Y130.717 E0.02393
G1 X169.858 Y133.342 E0.13567
G1 X169.96 Y133.814 E0.02409
G1 X170.391 Y136.501 E0.13577
G1 X170.442 Y136.981 E0.02408
G1 X170.589 Y139.698 E0.13575
G1 X170.59 Y140.174 E0.02375
G1 X170.456 Y142.892 E0.13577
G1 X170.407 Y143.376 E0.02427
G1 X169.986 Y146.067 E0.13589
G1 X169.886 Y146.54 E0.02412
G1 X169.186 Y149.167 E0.13563
G1 X169.039 Y149.623 E0.0239
G1 X168.069 Y152.165 E0.13574
G1 X167.874 Y152.604 E0.02397
G1 X166.644 Y155.032 E0.13579
G1 X166.403 Y155.452 E0.02416
G1 X164.925 Y157.736 E0.13573
G1 X164.644 Y158.125 E0.02394
G1 X162.935 Y160.244 E0.13582
G1 X162.614 Y160.601 E0.02395
G1 X160.694 Y162.53 E0.13578
G1 X160.335 Y162.855 E0.02416
G1 X158.223 Y164.571 E0.13576
G1 X157.836 Y164.853 E0.02389
G1 X155.559 Y166.339 E0.13565
G1 X155.141 Y166.582 E0.02412
G1 X152.718 Y167.822 E0.13579
G1 X152.279 Y168.018 E0.02399
G1 X149.739 Y168.999 E0.13584
G1 X149.283 Y169.148 E0.02393
G1 X146.658 Y169.858 E0.13567
G1 X146.185 Y169.96 E0.02414
G1 X143.496 Y170.391 E0.13587
G1 X143.017 Y170.442 E0.02403
G1 X140.301 Y170.589 E0.1357
G1 X139.825 Y170.59 E0.02375
G1 X137.108 Y170.456 E0.13572
G1 X136.624 Y170.407 E0.02427
G1 X133.933 Y169.986 E0.13589
G1 X133.46 Y169.886 E0.02412
G1 X130.833 Y169.186 E0.13563
G1 X130.377 Y169.039 E0.0239
G1 X127.833 Y168.068 E0.13585
G1 X127.394 Y167.873 E0.02397
G1 X124.966 Y166.643 E0.13579
G1 X124.546 Y166.402 E0.02416
G1 X122.264 Y164.925 E0.13562
G1 X121.875 Y164.644 E0.02394
G1 X119.756 Y162.935 E0.13582
G1 X119.399 Y162.614 E0.02395
G1 X117.47 Y160.694 E0.13578
G1 X117.145 Y160.335 E0.02416
G1 X115.429 Y158.223 E0.13576
G1 X115.147 Y157.836 E0.02389
G1 X113.66 Y155.557 E0.13576
G1 X113.417 Y155.139 E0.02412
G1 X112.177 Y152.716 E0.13579
G1 X111.981 Y152.277 E0.02399
G1 X111.001 Y149.739 E0.13573
G1 X110.852 Y149.283 E0.02393
G1 X110.142 Y146.658 E0.13567
G1 X110.04 Y146.185 E0.02414
G1 X109.609 Y143.496 E0.13587
G1 X109.558 Y143.017 E0.02403
G1 X109.411 Y140.302 E0.13565
G1 X109.41 Y139.826 E0.02375
G1 X109.544 Y137.108 E0.13577
G1 X109.593 Y136.624 E0.02427
G1 X110.014 Y133.933 E0.13589
G1 X110.114 Y133.46 E0.02412
G1 X110.814 Y130.833 E0.13563
G1 X110.961 Y130.377 E0.0239
G1 X111.931 Y127.835 E0.13574
G1 X112.126 Y127.396 E0.02397
G1 X113.356 Y124.968 E0.13579
G1 X113.597 Y124.548 E0.02416
G1 X115.075 Y122.264 E0.13573
G1 X115.356 Y121.875 E0.02394
G1 X117.065 Y119.756 E0.13582
G1 X117.386 Y119.399 E0.02395
G1 X119.306 Y117.47 E0.13578
G0 F3600 X119.589 Y117.752
G1 F1800 X119.918 Y117.455 E0.02211
G1 X122.03 Y115.739 E0.13576
G1 X122.383 Y115.482 E0.02178
G1 X124.66 Y113.996 E0.13565
G1 X125.042 Y113.774 E0.02204
G1 X127.465 Y112.534 E0.13579
G1 X127.865 Y112.355 E0.02186
G1 X130.405 Y111.374 E0.13584
G1 X130.821 Y111.238 E0.02184
G1 X133.446 Y110.528 E0.13567
G1 X133.878 Y110.435 E0.02205
G1 X136.567 Y110.004 E0.13587
G1 X137.005 Y109.957 E0.02198
G1 X139.721 Y109.81 E0.1357
G1 X140.155 Y109.809 E0.02165
G1 X142.872 Y109.943 E0.13572
G1 X143.314 Y109.988 E0.02217
G1 X146.005 Y110.409 E0.13589
G1 X146.437 Y110.501 E0.02204
G1 X149.064 Y111.201 E0.13563
G1 X149.481 Y111.335 E0.02185
G1 X152.025 Y112.306 E0.13585
G1 X152.425 Y112.483 E0.02182
G1 X154.851 Y113.712 E0.13568
G1 X155.235 Y113.933 E0.0221
G1 X157.519 Y115.411 E0.13573
G1 X157.874 Y115.668 E0.02187
G1 X159.993 Y117.377 E0.13582
G1 X160.319 Y117.669 E0.02183
G1 X162.248 Y119.589 E0.13578
G1 X162.545 Y119.918 E0.02211
G1 X164.261 Y122.03 E0.13576
G1 X164.518 Y122.383 E0.02178
G1 X166.004 Y124.66 E0.13565
G1 X166.226 Y125.042 E0.02204
G1 X167.466 Y127.465 E0.13579
G1 X167.645 Y127.865 E0.02186
G1 X168.626 Y130.405 E0.13584
G1 X168.762 Y130.821 E0.02184
G1 X169.472 Y133.446 E0.13567
G1 X169.565 Y133.878 E0.02205
G1 X169.996 Y136.565 E0.13577
G1 X170.043 Y137.003 E0.02198
G1 X170.19 Y139.72 E0.13575
G1 X170.191 Y140.154 E0.02165
G1 X170.057 Y142.872 E0.13577
G1 X170.012 Y143.314 E0.02217
G1 X169.591 Y146.005 E0.13589
G1 X169.499 Y146.437 E0.02204
G1 X168.799 Y149.064 E0.13563
G1 X168.665 Y149.48 E0.0218
G1 X167.695 Y152.022 E0.13574
G1 X167.518 Y152.423 E0.02187
G1 X166.288 Y154.851 E0.13579
G1 X166.067 Y155.235 E0.0221
G1 X164.589 Y157.519 E0.13573
G1 X164.332 Y157.874 E0.02187
G1 X162.623 Y159.993 E0.13582
G1 X162.331 Y160.319 E0.02183
G1 X160.411 Y162.248 E0.13578
G1 X160.082 Y162.545 E0.02211
G1 X157.97 Y164.261 E0.13576
G1 X157.617 Y164.518 E0.02178
G1 X155.34 Y166.004 E0.13565
G1 X154.958 Y166.226 E0.02204
G1 X152.535 Y167.466 E0.13579
G1 X152.135 Y167.645 E0.02186
G1 X149.595 Y168.626 E0.13584
G1 X149.179 Y168.762 E0.02184
G1 X146.554 Y169.472 E0.13567
G1 X146.122 Y169.565 E0.02205
G1 X143.433 Y169.996 E0.13587
G1 X142.995 Y170.043 E0.02198
G1 X140.279 Y170.19 E0.1357
G1 X139.845 Y170.191 E0.02165
G1 X137.128 Y170.057 E0.13572
G1 X136.686 Y170.012 E0.02217
G1 X133.995 Y169.591 E0.13589
G1 X133.563 Y169.499 E0.02204
G1 X130.936 Y168.799 E0.13563
G1 X130.519 Y168.665 E0.02185
G1 X127.975 Y167.694 E0.13585
G1 X127.575 Y167.517 E0.02182
G1 X125.147 Y166.287 E0.13579
G1 X124.763 Y166.066 E0.0221
G1 X122.481 Y164.589 E0.13562
G1 X122.126 Y164.332 E0.02187
G1 X120.007 Y162.623 E0.13582
G1 X119.681 Y162.331 E0.02183
G1 X117.752 Y160.411 E0.13578
G1 X117.455 Y160.082 E0.02211
G1 X115.739 Y157.97 E0.13576
G1 X115.482 Y157.617 E0.02178
G1 X113.995 Y155.338 E0.13576
G1 X113.773 Y154.956 E0.02204
G1 X112.533 Y152.533 E0.13579
G1 X112.354 Y152.133 E0.02186
G1 X111.374 Y149.595 E0.13573
G1 X111.238 Y149.179 E0.02184
G1 X110.528 Y146.554 E0.13567
G1 X110.435 Y146.122 E0.02205
G1 X110.004 Y143.433 E0.13587
G1 X109.957 Y142.995 E0.02198
G1 X109.81 Y140.28 E0.13565
G1 X109.809 Y139.846 E0.02165
G1 X109.943 Y137.128 E0.13577
G1 X109.988 Y136.686 E0.02217
G1 X110.409 Y133.995 E0.13589
G1 X110.501 Y133.563 E0.02204
G1 X111.201 Y130.936 E0.13563
G1 X111.335 Y130.52 E0.0218
G1 X112.305 Y127.978 E0.13574
G1 X112.482 Y127.577 E0.02187
G1 X113.712 Y125.149 E0.13579
G1 X113.933 Y124.765 E0.0221
G1 X115.411 Y122.481 E0.13573
G1 X115.668 Y122.126 E0.02187
G1 X117.377 Y120.007 E0.13582
G1 X117.669 Y119.681 E0.02183
G1 X119.589 Y117.752 E0.13578
G0 F3600 X119.873 Y118.034
G1 F1800 X120.17 Y117.766 E0.01996
G1 X122.282 Y116.05 E0.13576
G1 X122.601 Y115.817 E0.01971
G1 X124.878 Y114.331 E0.13565
G1 X125.224 Y114.13 E0.01996
G1 X127.647 Y112.89 E0.13579
G1 X128.009 Y112.728 E0.01979
G1 X130.549 Y111.747 E0.13584
G1 X130.926 Y111.624 E0.01978
G1 X133.551 Y110.914 E0.13567
G1 X133.942 Y110.83 E0.01995
G1 X136.631 Y110.399 E0.13587
G1 X137.027 Y110.357 E0.01987
G1 X139.743 Y110.21 E0.1357
G1 X140.135 Y110.209 E0.01956
G1 X142.852 Y110.343 E0.13572
G1 X143.252 Y110.384 E0.02006
G1 X145.943 Y110.805 E0.13589
G1 X146.334 Y110.887 E0.01993
G1 X148.961 Y111.587 E0.13563
G1 X149.338 Y111.709 E0.01977
G1 X151.882 Y112.68 E0.13585
G1 X152.244 Y112.84 E0.01975
G1 X154.67 Y114.069 E0.13568
G1 X155.017 Y114.269 E0.01998
G1 X157.301 Y115.747 E0.13573
G1 X157.623 Y115.979 E0.0198
G1 X159.742 Y117.688 E0.13582
G1 X160.037 Y117.953 E0.01978
G1 X161.966 Y119.873 E0.13578
G1 X162.234 Y120.17 E0.01996
G1 X163.95 Y122.282 E0.13576
G1 X164.183 Y122.601 E0.01971
G1 X165.669 Y124.878 E0.13565
G1 X165.87 Y125.224 E0.01996
G1 X167.11 Y127.647 E0.13579
G1 X167.272 Y128.009 E0.01979
G1 X168.253 Y130.549 E0.13584
G1 X168.376 Y130.926 E0.01978
G1 X169.086 Y133.551 E0.13567
G1 X169.17 Y133.941 E0.0199
G1 X169.601 Y136.628 E0.13577
G1 X169.643 Y137.025 E0.01992
G1 X169.79 Y139.742 E0.13575
G1 X169.791 Y140.134 E0.01956
G1 X169.657 Y142.852 E0.13577
G1 X169.616 Y143.252 E0.02006
G1 X169.195 Y145.943 E0.13589
G1 X169.113 Y146.334 E0.01993
G1 X168.413 Y148.961 E0.13563
G1 X168.291 Y149.338 E0.01977
G1 X167.321 Y151.88 E0.13574
G1 X167.161 Y152.242 E0.01975
G1 X165.931 Y154.67 E0.13579
G1 X165.731 Y155.017 E0.01998
G1 X164.253 Y157.301 E0.13573
G1 X164.021 Y157.623 E0.0198
G1 X162.312 Y159.742 E0.13582
G1 X162.047 Y160.037 E0.01978
G1 X160.127 Y161.966 E0.13578
G1 X159.83 Y162.234 E0.01996
G1 X157.718 Y163.95 E0.13576
G1 X157.399 Y164.183 E0.01971
G1 X155.122 Y165.669 E0.13565
G1 X154.776 Y165.87 E0.01996
G1 X152.353 Y167.11 E0.13579
G1 X151.991 Y167.272 E0.01979
G1 X149.451 Y168.253 E0.13584
G1 X149.074 Y168.376 E0.01978
G1 X146.449 Y169.086 E0.13567
G1 X146.058 Y169.17 E0.01995
G1 X143.369 Y169.601 E0.13587
G1 X142.973 Y169.643 E0.01987
G1 X140.257 Y169.79 E0.1357
G1 X139.865 Y169.791 E0.01956
G1 X137.148 Y169.657 E0.13572
G1 X136.748 Y169.616 E0.02006
G1 X134.057 Y169.195 E0.13589
G1 X133.666 Y169.113 E0.01993
G1 X131.039 Y168.413 E0.13563
G1 X130.662 Y168.291 E0.01977
G1 X128.118 Y167.32 E0.13585
G1 X127.756 Y167.16 E0.01975
G1 X125.328 Y165.93 E0.13579
G1 X124.98 Y165.73 E0.02002
G1 X122.698 Y164.253 E0.13562
G1 X122.377 Y164.021 E0.01976
G1 X120.258 Y162.312 E0.13582
G1 X119.963 Y162.047 E0.01978
G1 X118.034 Y160.127 E0.13578
G1 X117.766 Y159.83 E0.01996
G1 X116.05 Y157.718 E0.13576
G1 X115.817 Y157.398 E0.01975
G1 X114.33 Y155.119 E0.13576
G1 X114.129 Y154.774 E0.01992
G1 X112.889 Y152.351 E0.13579
G1 X112.727 Y151.989 E0.01979
G1 X111.747 Y149.451 E0.13573
G1 X111.624 Y149.074 E0.01978
G1 X110.914 Y146.449 E0.13567
G1 X110.83 Y146.058 E0.01995
G1 X110.399 Y143.369 E0.13587
G1 X110.357 Y142.973 E0.01987
G1 X110.21 Y140.258 E0.13565
G1 X110.209 Y139.866 E0.01956
G1 X110.343 Y137.148 E0.13577
G1 X110.384 Y136.748 E0.02006
G1 X110.805 Y134.057 E0.13589
G1 X110.887 Y133.666 E0.01993
G1 X111.587 Y131.039 E0.13563
G1 X111.709 Y130.662 E0.01977
G1 X112.679 Y128.12 E0.13574
G1 X112.839 Y127.758 E0.01975
G1 X114.069 Y125.33 E0.13579
G1 X114.269 Y124.983 E0.01998
G1 X115.747 Y122.699 E0.13573
G1 X115.979 Y122.377 E0.0198
G1 X117.688 Y120.258 E0.13582
G1 X117.953 Y119.963 E0.01978
G1 X119.873 Y118.034 E0.13578
G0 F3600 X120.156 Y118.316
G1 F1800 X120.422 Y118.076 E0.01787
G1 X122.534 Y116.36 E0.13576
G1 X122.82 Y116.152 E0.01764
G1 X125.097 Y114.666 E0.13565
G1 X125.406 Y114.486 E0.01784
G1 X127.829 Y113.246 E0.13579
G1 X128.153 Y113.101 E0.01771
G1 X130.693 Y112.12 E0.13584
G1 X131.03 Y112.01 E0.01769
G1 X133.655 Y111.3 E0.13567
G1 X134.005 Y111.225 E0.01786
G1 X136.694 Y110.794 E0.13587
G1 X137.048 Y110.756 E0.01776
G1 X139.764 Y110.609 E0.1357
G1 X140.115 Y110.608 E0.01751
G1 X142.832 Y110.742 E0.13572
G1 X143.191 Y110.779 E0.01801
G1 X145.882 Y111.2 E0.13589
