;FLAVOR:RepRap
;TIME:2754
;Filament used: 2.08033m
;Layer height: 0.2
;MINX:108.009
;MINY:108.009
;MINZ:0.3
;MAXX:171.991
;MAXY:171.991
;MAXZ:9.9
;Generated with Cura_SteamEngine 4.3.0
T0
M190 S60
M104 S250
M109 S250
M82 ;absolute extrusion mode
G28; Home
G1 Z15.0 F6000 ;Move the platform down 15mm
;Prime the extruder
G92 E0
G1 F200 E3
G92 E0
G29; Auto-bed-leveling
G0 Z0
G92 Z-1; Up 1mm
M83 ;relative extrusion mode
G1 F1500 E-6.5
;LAYER_COUNT:49
;LAYER:0
M107
G0 F3600 X118.36 Y116.437 Z0.3
;TYPE:SKIRT
G1 F1500 E6.5
G1 F1200 X118.752 Y116.083 E0.02635
G1 X120.947 Y114.302 E0.14102
G1 X121.365 Y113.997 E0.02582
G1 X123.73 Y112.454 E0.14088
G1 X124.185 Y112.191 E0.02622
G1 X126.701 Y110.904 E0.14099
G1 X127.178 Y110.69 E0.02608
G1 X129.817 Y109.672 E0.14112
G1 X130.315 Y109.509 E0.02614
G1 X133.041 Y108.774 E0.14086
G1 X133.555 Y108.665 E0.02621
G1 X136.348 Y108.219 E0.14111
G1 X136.865 Y108.163 E0.02594
G1 X139.686 Y108.01 E0.14095
G1 X140.208 Y108.009 E0.02604
G1 X143.029 Y108.151 E0.14092
G1 X143.551 Y108.205 E0.02618
G1 X146.345 Y108.642 E0.14109
G1 X146.86 Y108.751 E0.02626
G1 X149.588 Y109.478 E0.14085
G1 X150.085 Y109.639 E0.02606
G1 X152.727 Y110.649 E0.14111
G1 X153.205 Y110.86 E0.02607
G1 X155.723 Y112.138 E0.14088
G1 X156.178 Y112.4 E0.02619
G1 X158.55 Y113.936 E0.14098
G1 X158.971 Y114.241 E0.02594
G1 X161.172 Y116.016 E0.14107
G1 X161.562 Y116.366 E0.02614
G1 X163.563 Y118.36 E0.14093
G1 X163.917 Y118.752 E0.02635
G1 X165.698 Y120.947 E0.14102
G1 X166.003 Y121.365 E0.02582
G1 X167.546 Y123.73 E0.14088
G1 X167.809 Y124.185 E0.02622
G1 X169.096 Y126.701 E0.14099
G1 X169.31 Y127.178 E0.02608
G1 X170.328 Y129.817 E0.14112
G1 X170.491 Y130.315 E0.02614
G1 X171.226 Y133.041 E0.14086
G1 X171.335 Y133.554 E0.02617
G1 X171.781 Y136.345 E0.14101
G1 X171.837 Y136.863 E0.02599
G1 X171.99 Y139.685 E0.141
G1 X171.991 Y140.207 E0.02604
G1 X171.849 Y143.029 E0.14097
G1 X171.795 Y143.551 E0.02618
G1 X171.358 Y146.345 E0.14109
G1 X171.249 Y146.86 E0.02626
G1 X170.522 Y149.588 E0.14085
G1 X170.362 Y150.085 E0.02605
G1 X169.353 Y152.725 E0.141
G1 X169.141 Y153.203 E0.02609
G1 X167.862 Y155.723 E0.14099
G1 X167.6 Y156.178 E0.02619
G1 X166.064 Y158.55 E0.14098
G1 X165.759 Y158.971 E0.02594
G1 X163.984 Y161.172 E0.14107
G1 X163.634 Y161.562 E0.02614
G1 X161.64 Y163.563 E0.14093
G1 X161.248 Y163.917 E0.02635
G1 X159.053 Y165.698 E0.14102
G1 X158.635 Y166.003 E0.02582
G1 X156.27 Y167.546 E0.14088
G1 X155.815 Y167.809 E0.02622
G1 X153.299 Y169.096 E0.14099
G1 X152.822 Y169.31 E0.02608
G1 X150.183 Y170.328 E0.14112
G1 X149.685 Y170.491 E0.02614
G1 X146.959 Y171.226 E0.14086
G1 X146.445 Y171.335 E0.02621
G1 X143.652 Y171.781 E0.14111
G1 X143.135 Y171.837 E0.02594
G1 X140.314 Y171.99 E0.14095
G1 X139.792 Y171.991 E0.02604
G1 X136.971 Y171.849 E0.14092
G1 X136.449 Y171.795 E0.02618
G1 X133.655 Y171.358 E0.14109
G1 X133.14 Y171.249 E0.02626
G1 X130.412 Y170.522 E0.14085
G1 X129.915 Y170.361 E0.02606
G1 X127.273 Y169.351 E0.14111
G1 X126.795 Y169.14 E0.02607
G1 X124.275 Y167.861 E0.14099
G1 X123.82 Y167.599 E0.02619
G1 X121.45 Y166.064 E0.14087
G1 X121.029 Y165.759 E0.02594
G1 X118.828 Y163.984 E0.14107
G1 X118.438 Y163.634 E0.02614
G1 X116.437 Y161.64 E0.14093
G1 X116.083 Y161.248 E0.02635
G1 X114.302 Y159.053 E0.14102
G1 X113.997 Y158.635 E0.02582
G1 X112.453 Y156.268 E0.14099
G1 X112.19 Y155.813 E0.02622
G1 X110.903 Y153.297 E0.14099
G1 X110.689 Y152.819 E0.02613
G1 X109.672 Y150.182 E0.14101
G1 X109.509 Y149.685 E0.02609
G1 X108.774 Y146.959 E0.14086
G1 X108.665 Y146.445 E0.02621
G1 X108.219 Y143.652 E0.14111
G1 X108.163 Y143.135 E0.02594
G1 X108.01 Y140.315 E0.1409
G1 X108.009 Y139.793 E0.02604
G1 X108.151 Y136.971 E0.14097
G1 X108.205 Y136.449 E0.02618
G1 X108.642 Y133.655 E0.14109
G1 X108.751 Y133.14 E0.02626
G1 X109.478 Y130.412 E0.14085
G1 X109.638 Y129.915 E0.02605
G1 X110.647 Y127.275 E0.141
G1 X110.859 Y126.797 E0.02609
G1 X112.138 Y124.277 E0.14099
G1 X112.4 Y123.822 E0.02619
G1 X113.936 Y121.45 E0.14098
G1 X114.241 Y121.029 E0.02594
G1 X116.016 Y118.828 E0.14107
G1 X116.366 Y118.438 E0.02614
G1 X118.36 Y116.437 E0.14093
G0 F3600 X118.644 Y116.719
G1 F1200 X119.004 Y116.394 E0.0242
G1 X121.199 Y114.613 E0.14102
G1 X121.583 Y114.332 E0.02374
G1 X123.948 Y112.789 E0.14088
G1 X124.367 Y112.547 E0.02414
G1 X126.883 Y111.26 E0.14099
G1 X127.322 Y111.063 E0.02401
G1 X129.961 Y110.045 E0.14112
G1 X130.419 Y109.896 E0.02403
G1 X133.145 Y109.161 E0.14086
G1 X133.618 Y109.06 E0.02413
G1 X136.411 Y108.614 E0.14111
G1 X136.887 Y108.563 E0.02388
G1 X139.708 Y108.41 E0.14095
G1 X140.188 Y108.409 E0.02395
G1 X143.009 Y108.551 E0.14092
G1 X143.489 Y108.6 E0.02407
G1 X146.283 Y109.037 E0.14109
G1 X146.757 Y109.137 E0.02417
G1 X149.485 Y109.864 E0.14085
G1 X149.943 Y110.012 E0.02401
G1 X152.585 Y111.022 E0.14111
G1 X153.024 Y111.217 E0.02397
G1 X155.542 Y112.495 E0.14088
G1 X155.96 Y112.736 E0.02407
G1 X158.332 Y114.272 E0.14098
G1 X158.72 Y114.552 E0.02387
G1 X160.921 Y116.327 E0.14107
G1 X161.28 Y116.65 E0.02409
G1 X163.281 Y118.644 E0.14093
G1 X163.606 Y119.004 E0.0242
G1 X165.387 Y121.199 E0.14102
G1 X165.668 Y121.583 E0.02374
G1 X167.211 Y123.948 E0.14088
G1 X167.453 Y124.367 E0.02414
G1 X168.74 Y126.883 E0.14099
G1 X168.937 Y127.322 E0.02401
G1 X169.955 Y129.961 E0.14112
G1 X170.104 Y130.419 E0.02403
G1 X170.839 Y133.145 E0.14086
G1 X170.94 Y133.617 E0.02408
G1 X171.386 Y136.408 E0.14101
G1 X171.437 Y136.885 E0.02393
G1 X171.59 Y139.707 E0.141
G1 X171.591 Y140.187 E0.02395
G1 X171.449 Y143.009 E0.14097
G1 X171.4 Y143.489 E0.02407
G1 X170.963 Y146.283 E0.14109
G1 X170.863 Y146.757 E0.02417
G1 X170.136 Y149.485 E0.14085
G1 X169.988 Y149.942 E0.02397
G1 X168.979 Y152.582 E0.141
G1 X168.784 Y153.022 E0.02401
G1 X167.505 Y155.542 E0.14099
G1 X167.264 Y155.96 E0.02407
G1 X165.728 Y158.332 E0.14098
G1 X165.448 Y158.72 E0.02387
G1 X163.673 Y160.921 E0.14107
G1 X163.35 Y161.28 E0.02409
G1 X161.356 Y163.281 E0.14093
G1 X160.996 Y163.606 E0.0242
G1 X158.801 Y165.387 E0.14102
G1 X158.417 Y165.668 E0.02374
G1 X156.052 Y167.211 E0.14088
G1 X155.633 Y167.453 E0.02414
G1 X153.117 Y168.74 E0.14099
G1 X152.678 Y168.937 E0.02401
G1 X150.039 Y169.955 E0.14112
G1 X149.581 Y170.104 E0.02403
G1 X146.855 Y170.839 E0.14086
G1 X146.382 Y170.94 E0.02413
G1 X143.589 Y171.386 E0.14111
G1 X143.113 Y171.437 E0.02388
G1 X140.292 Y171.59 E0.14095
G1 X139.812 Y171.591 E0.02395
G1 X136.991 Y171.449 E0.14092
G1 X136.511 Y171.4 E0.02407
G1 X133.717 Y170.963 E0.14109
G1 X133.243 Y170.863 E0.02417
G1 X130.515 Y170.136 E0.14085
G1 X130.057 Y169.988 E0.02401
G1 X127.415 Y168.978 E0.14111
G1 X126.976 Y168.783 E0.02397
G1 X124.456 Y167.504 E0.14099
G1 X124.037 Y167.263 E0.02412
G1 X121.667 Y165.728 E0.14087
G1 X121.28 Y165.448 E0.02383
G1 X119.079 Y163.673 E0.14107
G1 X118.72 Y163.35 E0.02409
G1 X116.719 Y161.356 E0.14093
G1 X116.394 Y160.996 E0.0242
G1 X114.613 Y158.801 E0.14102
G1 X114.332 Y158.416 E0.02378
G1 X112.788 Y156.049 E0.14099
G1 X112.546 Y155.631 E0.0241
G1 X111.259 Y153.115 E0.14099
G1 X111.062 Y152.675 E0.02405
G1 X110.045 Y150.038 E0.14101
G1 X109.896 Y149.581 E0.02398
G1 X109.161 Y146.855 E0.14086
G1 X109.06 Y146.382 E0.02413
G1 X108.614 Y143.589 E0.14111
G1 X108.563 Y143.113 E0.02388
G1 X108.41 Y140.293 E0.1409
G1 X108.409 Y139.813 E0.02395
G1 X108.551 Y136.991 E0.14097
G1 X108.6 Y136.511 E0.02407
G1 X109.037 Y133.717 E0.14109
G1 X109.137 Y133.243 E0.02417
G1 X109.864 Y130.515 E0.14085
G1 X110.012 Y130.058 E0.02397
G1 X111.021 Y127.418 E0.141
G1 X111.216 Y126.978 E0.02401
G1 X112.495 Y124.458 E0.14099
G1 X112.736 Y124.04 E0.02407
G1 X114.272 Y121.668 E0.14098
G1 X114.552 Y121.28 E0.02387
G1 X116.327 Y119.079 E0.14107
G1 X116.65 Y118.72 E0.02409
G1 X118.644 Y116.719 E0.14093
G0 F3600 X118.927 Y117.001
G1 F1200 X119.256 Y116.705 E0.02208
G1 X121.451 Y114.924 E0.14102
G1 X121.802 Y114.667 E0.0217
G1 X124.167 Y113.124 E0.14088
G1 X124.549 Y112.903 E0.02202
G1 X127.065 Y111.616 E0.14099
G1 X127.466 Y111.436 E0.02193
G1 X130.105 Y110.418 E0.14112
G1 X130.524 Y110.282 E0.02198
G1 X133.25 Y109.547 E0.14086
G1 X133.681 Y109.455 E0.02199
G1 X136.474 Y109.009 E0.14111
G1 X136.909 Y108.962 E0.02183
G1 X139.73 Y108.809 E0.14095
G1 X140.168 Y108.808 E0.02185
G1 X142.989 Y108.95 E0.14092
G1 X143.427 Y108.995 E0.02197
G1 X146.221 Y109.432 E0.14109
G1 X146.654 Y109.524 E0.02208
G1 X149.382 Y110.251 E0.14085
G1 X149.8 Y110.386 E0.02191
G1 X152.442 Y111.396 E0.14111
G1 X152.843 Y111.574 E0.02189
G1 X155.361 Y112.852 E0.14088
G1 X155.743 Y113.072 E0.02199
G1 X158.115 Y114.608 E0.14098
G1 X158.469 Y114.864 E0.0218
G1 X160.67 Y116.639 E0.14107
G1 X160.998 Y116.933 E0.02198
G1 X162.999 Y118.927 E0.14093
G1 X163.295 Y119.256 E0.02208
G1 X165.076 Y121.451 E0.14102
G1 X165.333 Y121.802 E0.0217
G1 X166.876 Y124.167 E0.14088
G1 X167.097 Y124.549 E0.02202
G1 X168.384 Y127.065 E0.14099
G1 X168.564 Y127.466 E0.02193
G1 X169.582 Y130.105 E0.14112
G1 X169.718 Y130.524 E0.02198
G1 X170.453 Y133.25 E0.14086
G1 X170.545 Y133.68 E0.02194
G1 X170.991 Y136.471 E0.14101
G1 X171.038 Y136.907 E0.02188
G1 X171.191 Y139.729 E0.141
G1 X171.192 Y140.167 E0.02185
G1 X171.05 Y142.989 E0.14097
G1 X171.005 Y143.427 E0.02197
G1 X170.568 Y146.221 E0.14109
G1 X170.476 Y146.654 E0.02208
G1 X169.749 Y149.382 E0.14085
G1 X169.614 Y149.799 E0.02187
G1 X168.605 Y152.439 E0.141
G1 X168.427 Y152.841 E0.02193
G1 X167.148 Y155.361 E0.14099
G1 X166.928 Y155.743 E0.02199
G1 X165.392 Y158.115 E0.14098
G1 X165.136 Y158.469 E0.0218
G1 X163.361 Y160.67 E0.14107
G1 X163.067 Y160.998 E0.02198
G1 X161.073 Y162.999 E0.14093
G1 X160.744 Y163.295 E0.02208
G1 X158.549 Y165.076 E0.14102
G1 X158.198 Y165.333 E0.0217
G1 X155.833 Y166.876 E0.14088
G1 X155.451 Y167.097 E0.02202
G1 X152.935 Y168.384 E0.14099
G1 X152.534 Y168.564 E0.02193
G1 X149.895 Y169.582 E0.14112
G1 X149.476 Y169.718 E0.02198
G1 X146.75 Y170.453 E0.14086
G1 X146.319 Y170.545 E0.02199
G1 X143.526 Y170.991 E0.14111
G1 X143.091 Y171.038 E0.02183
G1 X140.27 Y171.191 E0.14095
G1 X139.832 Y171.192 E0.02185
G1 X137.011 Y171.05 E0.14092
G1 X136.573 Y171.005 E0.02197
G1 X133.779 Y170.568 E0.14109
G1 X133.346 Y170.476 E0.02208
G1 X130.618 Y169.749 E0.14085
G1 X130.2 Y169.614 E0.02191
G1 X127.558 Y168.604 E0.14111
G1 X127.157 Y168.426 E0.02189
G1 X124.637 Y167.147 E0.14099
G1 X124.255 Y166.927 E0.02199
G1 X121.885 Y165.392 E0.14087
G1 X121.531 Y165.136 E0.0218
G1 X119.33 Y163.361 E0.14107
G1 X119.002 Y163.067 E0.02198
G1 X117.001 Y161.073 E0.14093
G1 X116.705 Y160.744 E0.02208
G1 X114.924 Y158.549 E0.14102
G1 X114.667 Y158.198 E0.0217
G1 X113.123 Y155.831 E0.14099
G1 X112.902 Y155.449 E0.02202
G1 X111.615 Y152.933 E0.14099
G1 X111.435 Y152.531 E0.02197
G1 X110.418 Y149.894 E0.14101
G1 X110.282 Y149.476 E0.02193
G1 X109.547 Y146.75 E0.14086
G1 X109.455 Y146.319 E0.02199
G1 X109.009 Y143.526 E0.14111
G1 X108.962 Y143.092 E0.02178
G1 X108.809 Y140.272 E0.1409
G1 X108.808 Y139.833 E0.0219
G1 X108.95 Y137.011 E0.14097
G1 X108.995 Y136.573 E0.02197
G1 X109.432 Y133.779 E0.14109
G1 X109.524 Y133.346 E0.02208
G1 X110.251 Y130.618 E0.14085
G1 X110.386 Y130.201 E0.02187
G1 X111.395 Y127.561 E0.141
G1 X111.573 Y127.159 E0.02193
G1 X112.852 Y124.639 E0.14099
G1 X113.072 Y124.257 E0.02199
G1 X114.608 Y121.885 E0.14098
G1 X114.864 Y121.531 E0.0218
G1 X116.639 Y119.33 E0.14107
G1 X116.933 Y119.002 E0.02198
G1 X118.927 Y117.001 E0.14093
G0 F3600 X119.21 Y117.284
G1 F1200 X119.508 Y117.015 E0.02003
G1 X121.703 Y115.234 E0.14102
G1 X122.021 Y115.002 E0.01964
G1 X124.386 Y113.459 E0.14088
G1 X124.731 Y113.259 E0.0199
G1 X127.247 Y111.972 E0.14099
G1 X127.61 Y111.81 E0.01983
G1 X130.249 Y110.792 E0.14112
G1 X130.628 Y110.668 E0.01989
G1 X133.354 Y109.933 E0.14086
G1 X133.744 Y109.85 E0.01989
G1 X136.537 Y109.404 E0.14111
G1 X136.93 Y109.362 E0.01972
G1 X139.751 Y109.209 E0.14095
G1 X140.148 Y109.208 E0.01981
G1 X142.969 Y109.35 E0.14092
G1 X143.365 Y109.391 E0.01986
G1 X146.159 Y109.828 E0.14109
G1 X146.551 Y109.91 E0.01998
G1 X149.279 Y110.637 E0.14085
G1 X149.657 Y110.76 E0.01983
G1 X152.299 Y111.77 E0.14111
G1 X152.662 Y111.93 E0.01979
G1 X155.18 Y113.208 E0.14088
G1 X155.525 Y113.407 E0.01987
G1 X157.897 Y114.943 E0.14098
G1 X158.217 Y115.175 E0.01972
G1 X160.418 Y116.95 E0.14107
G1 X160.715 Y117.216 E0.01989
G1 X162.716 Y119.21 E0.14093
G1 X162.985 Y119.508 E0.02003
G1 X164.766 Y121.703 E0.14102
G1 X164.998 Y122.021 E0.01964
G1 X166.541 Y124.386 E0.14088
G1 X166.741 Y124.731 E0.0199
G1 X168.028 Y127.247 E0.14099
G1 X168.19 Y127.61 E0.01983
G1 X169.208 Y130.249 E0.14112
G1 X169.332 Y130.628 E0.01989
G1 X170.067 Y133.354 E0.14086
G1 X170.15 Y133.743 E0.01984
G1 X170.596 Y136.534 E0.14101
G1 X170.638 Y136.928 E0.01977
G1 X170.791 Y139.75 E0.141
G1 X170.792 Y140.147 E0.01981
G1 X170.65 Y142.969 E0.14097
G1 X170.609 Y143.365 E0.01986
G1 X170.172 Y146.159 E0.14109
G1 X170.09 Y146.551 E0.01998
G1 X169.363 Y149.279 E0.14085
G1 X169.241 Y149.657 E0.01982
G1 X168.232 Y152.297 E0.141
G1 X168.071 Y152.66 E0.01981
G1 X166.792 Y155.18 E0.14099
G1 X166.593 Y155.525 E0.01987
G1 X165.057 Y157.897 E0.14098
G1 X164.825 Y158.217 E0.01972
G1 X163.05 Y160.418 E0.14107
G1 X162.784 Y160.715 E0.01989
G1 X160.79 Y162.716 E0.14093
G1 X160.492 Y162.985 E0.02003
G1 X158.297 Y164.766 E0.14102
G1 X157.979 Y164.998 E0.01964
G1 X155.614 Y166.541 E0.14088
G1 X155.269 Y166.741 E0.0199
G1 X152.753 Y168.028 E0.14099
G1 X152.39 Y168.19 E0.01983
G1 X149.751 Y169.208 E0.14112
G1 X149.372 Y169.332 E0.01989
G1 X146.646 Y170.067 E0.14086
G1 X146.256 Y170.15 E0.01989
G1 X143.463 Y170.596 E0.14111
G1 X143.07 Y170.638 E0.01972
G1 X140.249 Y170.791 E0.14095
G1 X139.852 Y170.792 E0.01981
G1 X137.031 Y170.65 E0.14092
G1 X136.635 Y170.609 E0.01986
G1 X133.841 Y170.172 E0.14109
G1 X133.449 Y170.09 E0.01998
G1 X130.721 Y169.363 E0.14085
G1 X130.343 Y169.24 E0.01983
G1 X127.701 Y168.23 E0.14111
G1 X127.338 Y168.07 E0.01979
G1 X124.818 Y166.791 E0.14099
G1 X124.472 Y166.591 E0.01994
G1 X122.102 Y165.056 E0.14087
G1 X121.783 Y164.825 E0.01965
G1 X119.582 Y163.05 E0.14107
G1 X119.285 Y162.784 E0.01989
G1 X117.284 Y160.79 E0.14093
G1 X117.015 Y160.492 E0.02003
G1 X115.234 Y158.297 E0.14102
G1 X115.002 Y157.979 E0.01964
G1 X113.458 Y155.612 E0.14099
G1 X113.258 Y155.267 E0.0199
G1 X111.971 Y152.751 E0.14099
G1 X111.809 Y152.387 E0.01988
G1 X110.792 Y149.75 E0.14101
G1 X110.668 Y149.372 E0.01985
G1 X109.933 Y146.646 E0.14086
G1 X109.85 Y146.256 E0.01989
G1 X109.404 Y143.463 E0.14111
G1 X109.362 Y143.07 E0.01972
G1 X109.209 Y140.25 E0.1409
G1 X109.208 Y139.853 E0.01981
G1 X109.35 Y137.031 E0.14097
G1 X109.391 Y136.635 E0.01986
G1 X109.828 Y133.841 E0.14109
G1 X109.91 Y133.449 E0.01998
G1 X110.637 Y130.721 E0.14085
G1 X110.759 Y130.343 E0.01982
G1 X111.768 Y127.703 E0.141
G1 X111.929 Y127.34 E0.01981
G1 X113.208 Y124.82 E0.14099
G1 X113.407 Y124.475 E0.01987
G1 X114.943 Y122.103 E0.14098
G1 X115.175 Y121.783 E0.01972
G1 X116.95 Y119.582 E0.14107
G1 X117.216 Y119.285 E0.01989
G1 X119.21 Y117.284 E0.14093
G0 F3600 X119.494 Y117.566
G1 F1200 X119.76 Y117.326 E0.01787
G1 X121.955 Y115.545 E0.14102
G1 X122.239 Y115.337 E0.01756
G1 X124.604 Y113.794 E0.14088
G1 X124.914 Y113.615 E0.01786
G1 X127.43 Y112.328 E0.14099
G1 X127.754 Y112.183 E0.01771
G1 X130.393 Y111.165 E0.14112
G1 X130.732 Y111.054 E0.0178
G1 X133.458 Y110.319 E0.14086
G1 X133.807 Y110.245 E0.0178
G1 X136.6 Y109.799 E0.14111
G1 X136.952 Y109.761 E0.01766
G1 X139.773 Y109.608 E0.14095
G1 X140.128 Y109.607 E0.01771
G1 X142.949 Y109.749 E0.14092
G1 X143.303 Y109.786 E0.01776
G1 X146.097 Y110.223 E0.14109
G1 X146.448 Y110.297 E0.0179
