;FLAVOR:RepRap
;TIME:5751
;Filament used: 4.44526m
;Layer height: 0.2
;MINX:106.508
;MINY:106.509
;MINZ:0.3
;MAXX:173.492
;MAXY:173.491
;MAXZ:19.9
;Generated with Cura_SteamEngine 4.3.0
T0
M190 S60
M104 S250
M109 S250
M82 ;absolute extrusion mode
G28; Home
G1 Z15.0 F6000 ;Move the platform down 15mm
;Prime the extruder
G92 E0
G1 F200 E3
G92 E0
G29; Auto-bed-leveling
G0 Z0
G92 Z-1.2; Up 1.2mm
M83 ;relative extrusion mode
G1 F1500 E-6.5
;LAYER_COUNT:99
;LAYER:0
M107
G0 F3600 X117.374 Y115.305 Z0.3
;TYPE:SKIRT
G1 F1500 E6.5
G1 F1200 X117.764 Y114.953 E0.02621
G1 X120.082 Y113.074 E0.14887
G1 X120.503 Y112.768 E0.02597
G1 X123.001 Y111.142 E0.1487
G1 X123.456 Y110.878 E0.02624
G1 X126.113 Y109.522 E0.14882
G1 X126.59 Y109.31 E0.02604
G1 X129.376 Y108.238 E0.14893
G1 X129.874 Y108.075 E0.02614
G1 X132.753 Y107.301 E0.14873
G1 X133.265 Y107.192 E0.02612
G1 X136.213 Y106.723 E0.14893
G1 X136.732 Y106.668 E0.02604
G1 X139.71 Y106.509 E0.14878
G1 X140.232 Y106.509 E0.02604
G1 X143.21 Y106.661 E0.14877
G1 X143.732 Y106.715 E0.02618
G1 X146.68 Y107.179 E0.14889
G1 X147.194 Y107.288 E0.02621
G1 X150.074 Y108.058 E0.14873
G1 X150.572 Y108.219 E0.02611
G1 X153.36 Y109.287 E0.14895
G1 X153.837 Y109.499 E0.02604
G1 X156.494 Y110.85 E0.14871
G1 X156.948 Y111.112 E0.02615
G1 X159.451 Y112.735 E0.14883
G1 X159.874 Y113.041 E0.02605
G1 X162.195 Y114.917 E0.14889
G1 X162.584 Y115.267 E0.02611
G1 X164.695 Y117.374 E0.1488
G1 X165.047 Y117.764 E0.02621
G1 X166.926 Y120.082 E0.14887
G1 X167.232 Y120.503 E0.02597
G1 X168.858 Y123.001 E0.1487
G1 X169.122 Y123.456 E0.02624
G1 X170.478 Y126.113 E0.14882
G1 X170.69 Y126.59 E0.02604
G1 X171.762 Y129.376 E0.14893
G1 X171.925 Y129.874 E0.02614
G1 X172.699 Y132.753 E0.14873
G1 X172.808 Y133.265 E0.02612
G1 X173.277 Y136.211 E0.14883
G1 X173.332 Y136.731 E0.02609
G1 X173.491 Y139.71 E0.14883
G1 X173.492 Y140.231 E0.02599
G1 X173.34 Y143.21 E0.14882
G1 X173.285 Y143.732 E0.02619
G1 X172.821 Y146.68 E0.14889
G1 X172.712 Y147.194 E0.02621
G1 X171.942 Y150.074 E0.14873
G1 X171.781 Y150.571 E0.02606
G1 X170.714 Y153.357 E0.14884
G1 X170.502 Y153.835 E0.02609
G1 X169.15 Y156.494 E0.14882
G1 X168.888 Y156.948 E0.02615
G1 X167.265 Y159.451 E0.14883
G1 X166.959 Y159.874 E0.02605
G1 X165.083 Y162.195 E0.14889
G1 X164.733 Y162.584 E0.02611
G1 X162.626 Y164.695 E0.1488
G1 X162.236 Y165.047 E0.02621
G1 X159.918 Y166.926 E0.14887
G1 X159.497 Y167.232 E0.02597
G1 X156.999 Y168.858 E0.1487
G1 X156.544 Y169.122 E0.02624
G1 X153.887 Y170.478 E0.14882
G1 X153.41 Y170.69 E0.02604
G1 X150.624 Y171.762 E0.14893
G1 X150.126 Y171.925 E0.02614
G1 X147.247 Y172.699 E0.14873
G1 X146.735 Y172.808 E0.02612
G1 X143.787 Y173.277 E0.14893
G1 X143.268 Y173.332 E0.02604
G1 X140.29 Y173.491 E0.14878
G1 X139.768 Y173.491 E0.02604
G1 X136.79 Y173.339 E0.14877
G1 X136.268 Y173.285 E0.02618
G1 X133.32 Y172.821 E0.14889
G1 X132.806 Y172.712 E0.02621
G1 X129.926 Y171.942 E0.14873
G1 X129.428 Y171.781 E0.02611
G1 X126.64 Y170.713 E0.14895
G1 X126.163 Y170.501 E0.02604
G1 X123.504 Y169.149 E0.14882
G1 X123.049 Y168.887 E0.02619
G1 X120.548 Y167.265 E0.14872
G1 X120.126 Y166.959 E0.02601
G1 X117.805 Y165.083 E0.14889
G1 X117.416 Y164.733 E0.02611
G1 X115.305 Y162.626 E0.1488
G1 X114.953 Y162.236 E0.02621
G1 X113.074 Y159.918 E0.14887
G1 X112.767 Y159.496 E0.02604
G1 X111.14 Y156.996 E0.14881
G1 X110.877 Y156.542 E0.02618
G1 X109.521 Y153.885 E0.14882
G1 X109.308 Y153.407 E0.02611
G1 X108.237 Y150.623 E0.14882
G1 X108.075 Y150.126 E0.02608
G1 X107.301 Y147.247 E0.14873
G1 X107.192 Y146.735 E0.02612
G1 X106.723 Y143.787 E0.14893
G1 X106.668 Y143.268 E0.02604
G1 X106.509 Y140.291 E0.14873
G1 X106.508 Y139.769 E0.02604
G1 X106.66 Y136.79 E0.14882
G1 X106.715 Y136.268 E0.02619
G1 X107.179 Y133.32 E0.14889
G1 X107.288 Y132.806 E0.02621
G1 X108.058 Y129.926 E0.14873
G1 X108.219 Y129.429 E0.02606
G1 X109.286 Y126.643 E0.14884
G1 X109.498 Y126.165 E0.02609
G1 X110.85 Y123.506 E0.14882
G1 X111.112 Y123.052 E0.02615
G1 X112.735 Y120.549 E0.14883
G1 X113.041 Y120.126 E0.02605
G1 X114.917 Y117.805 E0.14889
G1 X115.267 Y117.416 E0.02611
G1 X117.374 Y115.305 E0.1488
G0 F3600 X117.657 Y115.587
G1 F1200 X118.016 Y115.264 E0.02409
G1 X120.334 Y113.385 E0.14887
G1 X120.722 Y113.103 E0.02393
G1 X123.22 Y111.477 E0.1487
G1 X123.638 Y111.235 E0.0241
G1 X126.295 Y109.879 E0.14882
G1 X126.734 Y109.683 E0.02399
G1 X129.52 Y108.611 E0.14893
G1 X129.978 Y108.462 E0.02403
G1 X132.857 Y107.688 E0.14873
G1 X133.328 Y107.587 E0.02403
G1 X136.276 Y107.118 E0.14893
G1 X136.754 Y107.068 E0.02398
G1 X139.732 Y106.909 E0.14878
G1 X140.211 Y106.908 E0.0239
G1 X143.189 Y107.06 E0.14877
G1 X143.67 Y107.11 E0.02413
G1 X146.618 Y107.574 E0.14889
G1 X147.091 Y107.674 E0.02412
G1 X149.971 Y108.444 E0.14873
G1 X150.429 Y108.592 E0.02401
G1 X153.217 Y109.66 E0.14895
G1 X153.656 Y109.856 E0.02399
G1 X156.313 Y111.207 E0.14871
G1 X156.731 Y111.447 E0.02405
G1 X159.234 Y113.07 E0.14883
G1 X159.623 Y113.352 E0.02397
G1 X161.944 Y115.228 E0.14889
G1 X162.302 Y115.55 E0.02402
G1 X164.413 Y117.657 E0.1488
G1 X164.736 Y118.016 E0.02409
G1 X166.615 Y120.334 E0.14887
G1 X166.897 Y120.722 E0.02393
G1 X168.523 Y123.22 E0.1487
G1 X168.765 Y123.638 E0.0241
G1 X170.121 Y126.295 E0.14882
G1 X170.317 Y126.734 E0.02399
G1 X171.389 Y129.52 E0.14893
G1 X171.538 Y129.978 E0.02403
G1 X172.312 Y132.857 E0.14873
G1 X172.413 Y133.328 E0.02403
G1 X172.882 Y136.274 E0.14883
G1 X172.932 Y136.752 E0.02398
G1 X173.091 Y139.731 E0.14883
G1 X173.092 Y140.21 E0.0239
G1 X172.94 Y143.189 E0.14882
G1 X172.89 Y143.67 E0.02413
G1 X172.426 Y146.618 E0.14889
G1 X172.326 Y147.091 E0.02412
G1 X171.556 Y149.971 E0.14873
G1 X171.408 Y150.428 E0.02397
G1 X170.341 Y153.214 E0.14884
G1 X170.145 Y153.654 E0.02403
G1 X168.793 Y156.313 E0.14882
G1 X168.553 Y156.731 E0.02405
G1 X166.93 Y159.234 E0.14883
G1 X166.648 Y159.623 E0.02397
G1 X164.772 Y161.944 E0.14889
G1 X164.45 Y162.302 E0.02402
G1 X162.343 Y164.413 E0.1488
G1 X161.984 Y164.736 E0.02409
G1 X159.666 Y166.615 E0.14887
G1 X159.278 Y166.897 E0.02393
G1 X156.78 Y168.523 E0.1487
G1 X156.362 Y168.765 E0.0241
G1 X153.705 Y170.121 E0.14882
G1 X153.266 Y170.317 E0.02399
G1 X150.48 Y171.389 E0.14893
G1 X150.022 Y171.538 E0.02403
G1 X147.143 Y172.312 E0.14873
G1 X146.672 Y172.413 E0.02403
G1 X143.724 Y172.882 E0.14893
G1 X143.246 Y172.932 E0.02398
G1 X140.268 Y173.091 E0.14878
G1 X139.789 Y173.092 E0.0239
G1 X136.811 Y172.94 E0.14877
G1 X136.33 Y172.89 E0.02413
G1 X133.382 Y172.426 E0.14889
G1 X132.909 Y172.326 E0.02412
G1 X130.029 Y171.556 E0.14873
G1 X129.571 Y171.408 E0.02401
G1 X126.783 Y170.34 E0.14895
G1 X126.344 Y170.144 E0.02399
G1 X123.685 Y168.792 E0.14882
G1 X123.267 Y168.551 E0.02407
G1 X120.766 Y166.929 E0.14872
G1 X120.377 Y166.648 E0.02394
G1 X118.056 Y164.772 E0.14889
G1 X117.698 Y164.45 E0.02402
G1 X115.587 Y162.343 E0.1488
G1 X115.264 Y161.984 E0.02409
G1 X113.385 Y159.666 E0.14887
G1 X113.103 Y159.278 E0.02393
G1 X111.476 Y156.778 E0.14881
G1 X111.234 Y156.36 E0.0241
G1 X109.878 Y153.703 E0.14882
G1 X109.682 Y153.264 E0.02399
G1 X108.611 Y150.48 E0.14882
G1 X108.462 Y150.022 E0.02403
G1 X107.688 Y147.143 E0.14873
G1 X107.587 Y146.672 E0.02403
G1 X107.118 Y143.724 E0.14893
G1 X107.068 Y143.246 E0.02398
G1 X106.909 Y140.269 E0.14873
G1 X106.908 Y139.79 E0.0239
G1 X107.06 Y136.811 E0.14882
G1 X107.11 Y136.33 E0.02413
G1 X107.574 Y133.382 E0.14889
G1 X107.674 Y132.909 E0.02412
G1 X108.444 Y130.029 E0.14873
G1 X108.592 Y129.572 E0.02397
G1 X109.659 Y126.786 E0.14884
G1 X109.855 Y126.346 E0.02403
G1 X111.207 Y123.687 E0.14882
G1 X111.447 Y123.269 E0.02405
G1 X113.07 Y120.766 E0.14883
G1 X113.352 Y120.377 E0.02397
G1 X115.228 Y118.056 E0.14889
G1 X115.55 Y117.698 E0.02402
G1 X117.657 Y115.587 E0.1488
G0 F3600 X117.94 Y115.87
G1 F1200 X118.268 Y115.574 E0.02204
G1 X120.586 Y113.695 E0.14887
G1 X120.94 Y113.438 E0.02182
G1 X123.438 Y111.812 E0.1487
G1 X123.82 Y111.591 E0.02202
G1 X126.477 Y110.235 E0.14882
G1 X126.878 Y110.056 E0.02191
G1 X129.664 Y108.984 E0.14893
G1 X130.082 Y108.848 E0.02193
G1 X132.961 Y108.074 E0.14873
G1 X133.391 Y107.982 E0.02194
G1 X136.339 Y107.513 E0.14893
G1 X136.775 Y107.467 E0.02187
G1 X139.753 Y107.308 E0.14878
G1 X140.191 Y107.307 E0.02185
G1 X143.169 Y107.459 E0.14877
G1 X143.608 Y107.505 E0.02202
G1 X146.556 Y107.969 E0.14889
G1 X146.988 Y108.061 E0.02204
G1 X149.868 Y108.831 E0.14873
G1 X150.285 Y108.966 E0.02187
G1 X153.073 Y110.034 E0.14895
G1 X153.475 Y110.212 E0.02193
G1 X156.132 Y111.563 E0.14871
G1 X156.513 Y111.783 E0.02195
G1 X159.016 Y113.406 E0.14883
G1 X159.371 Y113.664 E0.02189
G1 X161.692 Y115.54 E0.14889
G1 X162.019 Y115.833 E0.02191
G1 X164.13 Y117.94 E0.1488
G1 X164.426 Y118.268 E0.02204
G1 X166.305 Y120.586 E0.14887
G1 X166.562 Y120.94 E0.02182
G1 X168.188 Y123.438 E0.1487
G1 X168.409 Y123.82 E0.02202
G1 X169.765 Y126.477 E0.14882
G1 X169.944 Y126.878 E0.02191
G1 X171.016 Y129.664 E0.14893
G1 X171.152 Y130.082 E0.02193
G1 X171.926 Y132.961 E0.14873
G1 X172.018 Y133.391 E0.02194
G1 X172.487 Y136.337 E0.14883
G1 X172.533 Y136.773 E0.02187
G1 X172.692 Y139.752 E0.14883
G1 X172.693 Y140.19 E0.02185
G1 X172.541 Y143.169 E0.14882
G1 X172.495 Y143.608 E0.02202
G1 X172.031 Y146.556 E0.14889
G1 X171.939 Y146.988 E0.02204
G1 X171.169 Y149.868 E0.14873
G1 X171.034 Y150.285 E0.02187
G1 X169.967 Y153.071 E0.14884
G1 X169.789 Y153.473 E0.02193
G1 X168.437 Y156.132 E0.14882
G1 X168.217 Y156.513 E0.02195
G1 X166.594 Y159.016 E0.14883
G1 X166.336 Y159.371 E0.02189
G1 X164.46 Y161.692 E0.14889
G1 X164.167 Y162.019 E0.02191
G1 X162.06 Y164.13 E0.1488
G1 X161.732 Y164.426 E0.02204
G1 X159.414 Y166.305 E0.14887
G1 X159.06 Y166.562 E0.02182
G1 X156.562 Y168.188 E0.1487
G1 X156.18 Y168.409 E0.02202
G1 X153.523 Y169.765 E0.14882
G1 X153.122 Y169.944 E0.02191
G1 X150.336 Y171.016 E0.14893
G1 X149.918 Y171.152 E0.02193
G1 X147.039 Y171.926 E0.14873
G1 X146.609 Y172.018 E0.02194
G1 X143.661 Y172.487 E0.14893
G1 X143.225 Y172.533 E0.02187
G1 X140.247 Y172.692 E0.14878
G1 X139.809 Y172.693 E0.02185
G1 X136.831 Y172.541 E0.14877
G1 X136.392 Y172.495 E0.02202
G1 X133.444 Y172.031 E0.14889
G1 X133.012 Y171.939 E0.02204
G1 X130.132 Y171.169 E0.14873
G1 X129.715 Y171.034 E0.02187
G1 X126.927 Y169.966 E0.14895
G1 X126.525 Y169.788 E0.02193
G1 X123.866 Y168.436 E0.14882
G1 X123.485 Y168.216 E0.02195
G1 X120.984 Y166.594 E0.14872
G1 X120.629 Y166.336 E0.02189
G1 X118.308 Y164.46 E0.14889
G1 X117.981 Y164.167 E0.02191
G1 X115.87 Y162.06 E0.1488
G1 X115.574 Y161.732 E0.02204
G1 X113.695 Y159.414 E0.14887
G1 X113.438 Y159.06 E0.02182
G1 X111.811 Y156.56 E0.14881
G1 X111.59 Y156.178 E0.02202
G1 X110.234 Y153.521 E0.14882
G1 X110.055 Y153.12 E0.02191
G1 X108.984 Y150.336 E0.14882
G1 X108.848 Y149.918 E0.02193
G1 X108.074 Y147.039 E0.14873
G1 X107.982 Y146.609 E0.02194
G1 X107.513 Y143.661 E0.14893
G1 X107.467 Y143.225 E0.02187
G1 X107.308 Y140.248 E0.14873
G1 X107.307 Y139.81 E0.02185
G1 X107.459 Y136.831 E0.14882
G1 X107.505 Y136.392 E0.02202
G1 X107.969 Y133.444 E0.14889
G1 X108.061 Y133.012 E0.02204
G1 X108.831 Y130.132 E0.14873
G1 X108.966 Y129.715 E0.02187
G1 X110.033 Y126.929 E0.14884
G1 X110.211 Y126.527 E0.02193
G1 X111.563 Y123.868 E0.14882
G1 X111.783 Y123.487 E0.02195
G1 X113.406 Y120.984 E0.14883
G1 X113.664 Y120.629 E0.02189
G1 X115.54 Y118.308 E0.14889
G1 X115.833 Y117.981 E0.02191
G1 X117.94 Y115.87 E0.1488
G0 F3600 X118.223 Y116.153
G1 F1200 X118.52 Y115.885 E0.01996
G1 X120.838 Y114.006 E0.14887
G1 X121.158 Y113.773 E0.01975
G1 X123.656 Y112.147 E0.1487
G1 X124.002 Y111.947 E0.01994
G1 X126.659 Y110.591 E0.14882
G1 X127.021 Y110.429 E0.01979
G1 X129.807 Y109.357 E0.14893
G1 X130.185 Y109.234 E0.01983
G1 X133.064 Y108.46 E0.14873
G1 X133.454 Y108.377 E0.01989
G1 X136.402 Y107.908 E0.14893
G1 X136.796 Y107.866 E0.01977
G1 X139.774 Y107.707 E0.14878
G1 X140.171 Y107.707 E0.01981
G1 X143.149 Y107.859 E0.14877
G1 X143.546 Y107.9 E0.01991
G1 X146.494 Y108.364 E0.14889
G1 X146.884 Y108.447 E0.01989
G1 X149.764 Y109.217 E0.14873
G1 X150.142 Y109.339 E0.01982
G1 X152.93 Y110.407 E0.14895
G1 X153.293 Y110.569 E0.01983
G1 X155.95 Y111.92 E0.14871
G1 X156.295 Y112.119 E0.01987
G1 X158.798 Y113.742 E0.14883
G1 X159.12 Y113.975 E0.01983
G1 X161.441 Y115.851 E0.14889
G1 X161.736 Y116.116 E0.01978
G1 X163.847 Y118.223 E0.1488
G1 X164.115 Y118.52 E0.01996
G1 X165.994 Y120.838 E0.14887
G1 X166.227 Y121.158 E0.01975
G1 X167.853 Y123.656 E0.1487
G1 X168.053 Y124.002 E0.01994
G1 X169.409 Y126.659 E0.14882
G1 X169.571 Y127.021 E0.01979
G1 X170.643 Y129.807 E0.14893
G1 X170.766 Y130.185 E0.01983
G1 X171.54 Y133.064 E0.14873
G1 X171.623 Y133.454 E0.01989
G1 X172.092 Y136.4 E0.14883
G1 X172.134 Y136.794 E0.01977
G1 X172.293 Y139.773 E0.14883
G1 X172.293 Y140.17 E0.01981
G1 X172.141 Y143.149 E0.14882
G1 X172.1 Y143.546 E0.01991
G1 X171.636 Y146.494 E0.14889
G1 X171.553 Y146.884 E0.01989
G1 X170.783 Y149.764 E0.14873
G1 X170.661 Y150.142 E0.01982
G1 X169.594 Y152.928 E0.14884
G1 X169.432 Y153.291 E0.01983
G1 X168.08 Y155.95 E0.14882
G1 X167.881 Y156.295 E0.01987
G1 X166.258 Y158.798 E0.14883
G1 X166.025 Y159.12 E0.01983
G1 X164.149 Y161.441 E0.14889
G1 X163.884 Y161.736 E0.01978
G1 X161.777 Y163.847 E0.1488
G1 X161.48 Y164.115 E0.01996
G1 X159.162 Y165.994 E0.14887
G1 X158.842 Y166.227 E0.01975
G1 X156.344 Y167.853 E0.1487
G1 X155.998 Y168.053 E0.01994
G1 X153.341 Y169.409 E0.14882
G1 X152.979 Y169.571 E0.01979
G1 X150.193 Y170.643 E0.14893
G1 X149.815 Y170.766 E0.01983
G1 X146.936 Y171.54 E0.14873
G1 X146.546 Y171.623 E0.01989
G1 X143.598 Y172.092 E0.14893
G1 X143.204 Y172.134 E0.01977
G1 X140.226 Y172.293 E0.14878
G1 X139.829 Y172.293 E0.01981
G1 X136.851 Y172.141 E0.14877
G1 X136.454 Y172.1 E0.01991
G1 X133.506 Y171.636 E0.14889
G1 X133.116 Y171.553 E0.01989
G1 X130.236 Y170.783 E0.14873
G1 X129.858 Y170.661 E0.01982
G1 X127.07 Y169.593 E0.14895
G1 X126.707 Y169.431 E0.01983
G1 X124.048 Y168.079 E0.14882
G1 X123.702 Y167.88 E0.01991
G1 X121.201 Y166.258 E0.14872
G1 X120.88 Y166.025 E0.01979
G1 X118.559 Y164.149 E0.14889
G1 X118.264 Y163.884 E0.01978
G1 X116.153 Y161.777 E0.1488
G1 X115.885 Y161.48 E0.01996
G1 X114.006 Y159.162 E0.14887
G1 X113.773 Y158.842 E0.01975
G1 X112.146 Y156.342 E0.14881
G1 X111.946 Y155.996 E0.01994
G1 X110.59 Y153.339 E0.14882
G1 X110.428 Y152.976 E0.01983
G1 X109.357 Y150.192 E0.14882
G1 X109.234 Y149.815 E0.01978
G1 X108.46 Y146.936 E0.14873
G1 X108.377 Y146.546 E0.01989
G1 X107.908 Y143.598 E0.14893
G1 X107.866 Y143.204 E0.01977
G1 X107.707 Y140.227 E0.14873
G1 X107.707 Y139.83 E0.01981
G1 X107.859 Y136.851 E0.14882
G1 X107.9 Y136.454 E0.01991
G1 X108.364 Y133.506 E0.14889
G1 X108.447 Y133.116 E0.01989
G1 X109.217 Y130.236 E0.14873
G1 X109.339 Y129.858 E0.01982
G1 X110.406 Y127.072 E0.14884
G1 X110.568 Y126.709 E0.01983
G1 X111.92 Y124.05 E0.14882
G1 X112.119 Y123.705 E0.01987
G1 X113.742 Y121.202 E0.14883
G1 X113.975 Y120.88 E0.01983
G1 X115.851 Y118.559 E0.14889
G1 X116.116 Y118.264 E0.01978
G1 X118.223 Y116.153 E0.1488
G0 F3600 X118.507 Y116.435
G1 F1200 X118.772 Y116.196 E0.0178
G1 X121.09 Y114.317 E0.14887
G1 X121.376 Y114.108 E0.01767
G1 X123.874 Y112.482 E0.1487
G1 X124.183 Y112.304 E0.01779
G1 X126.84 Y110.948 E0.14882
G1 X127.165 Y110.803 E0.01775
G1 X129.951 Y109.731 E0.14893
G1 X130.289 Y109.621 E0.01773
G1 X133.168 Y108.847 E0.14873
G1 X133.517 Y108.772 E0.01781
G1 X136.465 Y108.303 E0.14893
G1 X136.818 Y108.266 E0.01771
G1 X139.796 Y108.107 E0.14878
G1 X140.15 Y108.106 E0.01766
G1 X143.128 Y108.258 E0.14877
G1 X143.484 Y108.295 E0.01786
G1 X146.432 Y108.759 E0.14889
